; GCode generated by CraftWare

G28 X Y ; home horizontally
G28 Z ; home vertically


M104 S215 ;set head temp (no wait)
M190 S60 ;set bed temp (wait)
M109 S215 ;set head temp (wait)
; ------------------------------------
; Layer #0
; ------------------------------------
M106 S0 ;turn off fan
G21 ; mm
G90 ; abs
G92 E0 ;reset extr
G0 F600 Z0.200
;segType:Skirt
G0 F3000 E-1.00000
G0 X108.297 Y119.808 F5400
G0 F3000 E0.00000
G1 X106.450 Y117.961 E0.08688 F2400
G1 X105.988 Y117.895 E0.10238
G1 X70.630 Y117.895 E1.27840
G1 X70.168 Y117.829 E1.29392
G1 X68.981 Y116.642 E1.34977
G1 X68.981 Y108.726 E1.61306
G1 X70.036 Y107.670 E1.66270
G1 X70.366 Y107.472 E1.67551
G1 X105.724 Y107.472 E2.85152
G1 X106.186 Y107.406 E2.86702
G1 X108.561 Y105.032 E2.97873
G1 X109.023 Y104.965 E2.99425
G1 X154.671 Y104.965 E4.51253
G1 X154.737 Y104.504 E4.52804
G1 X154.737 Y83.922 E5.21258
G1 X154.935 Y83.592 E5.22539
G1 X158.497 Y80.030 E5.39294
G1 X242.143 Y80.030 E8.17500
G1 X245.837 Y83.724 E8.34876
G1 X245.890 Y84.096 E8.36127
G0 F3000 E7.36127
G0 X109.300 Y111.700 F5400
G0 F3000 E8.36127
;segType:Support
G1 X71.500 Y111.700 E9.42992 F2400
G1 X71.500 Y109.900 E9.48080
G1 X109.300 Y109.900 E10.54945
G0 X109.300 Y115.300 F5400
G1 X71.500 Y115.300 E11.61810 F2400
G1 X71.500 Y113.500 E11.66899
G1 X109.300 Y113.500 E12.73764
G0 F3000 E11.73764
G0 X161.636 Y114.039 F5400
G0 F3000 E12.73764
;segType:HShell
G1 X158.557 Y110.961 E12.88245 F2400
G0 X159.123 Y110.961 F5400
G1 X162.201 Y114.039 E13.02727 F2400
G0 X162.767 Y114.039 F5400
G1 X159.688 Y110.961 E13.17208 F2400
G0 X160.079 Y110.941 F5400
;segType:Perimeter
G1 X160.079 Y110.141 E13.19869 F1440
G1 X160.079 Y85.200 E14.02820
G1 X240.679 Y85.200 E16.70894
G1 X240.679 Y114.800 E17.69342
G1 X110.079 Y114.800 E22.03716
G1 X110.079 Y110.201 E22.19013
G1 X160.019 Y110.201 E23.85113
G0 X159.852 Y110.601 F5400
G0 X160.479 Y110.601
G0 X160.479 Y109.101
G0 X160.479 Y109.101
;segType:Loop
G1 X160.479 Y85.600 E24.63275 F2400
G1 X240.279 Y85.600 E27.28689
G1 X240.279 Y114.400 E28.24475
G1 X110.479 Y114.400 E32.56189
G1 X110.479 Y110.601 E32.68825
G1 X160.479 Y110.601 E34.35125
G1 X160.479 Y109.301 E34.39449
G0 X160.254 Y110.961 F5400
;segType:HShell
G1 X163.333 Y114.039 E34.53930 F2400
G0 X163.898 Y114.039 F5400
G1 X160.820 Y110.961 E34.68411 F2400
G0 X160.839 Y110.415 F5400
G1 X164.464 Y114.039 E34.85461 F2400
G0 X165.030 Y114.039 F5400
G1 X160.839 Y109.849 E35.05171 F2400
G0 X160.839 Y109.283 F5400
G1 X165.595 Y114.039 E35.27542 F2400
G0 X166.161 Y114.039 F5400
G1 X160.839 Y108.718 E35.52574 F2400
G0 X160.839 Y108.152 F5400
G1 X166.727 Y114.039 E35.80266 F2400
G0 X167.293 Y114.039 F5400
G1 X160.839 Y107.586 E36.10620 F2400
G0 X160.839 Y107.021 F5400
G1 X167.858 Y114.039 E36.43634 F2400
G0 X168.424 Y114.039 F5400
G1 X160.839 Y106.455 E36.79309 F2400
G0 X160.839 Y105.889 F5400
G1 X168.990 Y114.039 E37.17645 F2400
G0 X169.555 Y114.039 F5400
G1 X160.839 Y105.324 E37.58642 F2400
G0 X160.839 Y104.758 F5400
G1 X170.121 Y114.039 E38.02299 F2400
G0 X170.687 Y114.039 F5400
G1 X160.839 Y104.192 E38.48618 F2400
G0 X160.839 Y103.627 F5400
G1 X171.252 Y114.039 E38.97597 F2400
G0 X171.818 Y114.039 F5400
G1 X160.839 Y103.061 E39.49237 F2400
G0 X160.839 Y102.495 F5400
G1 X172.384 Y114.039 E40.03537 F2400
G0 X172.949 Y114.039 F5400
G1 X160.839 Y101.930 E40.60499 F2400
G0 X160.839 Y101.364 F5400
G1 X173.515 Y114.039 E41.20122 F2400
G0 X174.081 Y114.039 F5400
G1 X160.839 Y100.798 E41.82405 F2400
G0 X160.839 Y100.232 F5400
G1 X174.646 Y114.040 E42.47349 F2400
G0 X175.212 Y114.040 F5400
G1 X160.839 Y99.667 E43.14954 F2400
G0 X160.839 Y99.101 F5400
G1 X175.778 Y114.040 E43.85220 F2400
G0 X176.344 Y114.040 F5400
G1 X160.839 Y98.535 E44.58147 F2400
G0 X160.839 Y97.970 F5400
G1 X176.909 Y114.040 E45.33734 F2400
G0 X177.475 Y114.040 F5400
G1 X160.839 Y97.404 E46.11982 F2400
G0 X160.839 Y96.838 F5400
G1 X178.041 Y114.040 E46.92891 F2400
G0 X178.606 Y114.040 F5400
G1 X160.839 Y96.273 E47.76461 F2400
G0 X160.839 Y95.707 F5400
G1 X179.172 Y114.040 E48.62692 F2400
G0 X179.738 Y114.040 F5400
G1 X160.839 Y95.141 E49.51583 F2400
G0 X160.839 Y94.576 F5400
G1 X180.303 Y114.040 E50.43136 F2400
G0 X180.869 Y114.040 F5400
G1 X160.839 Y94.010 E51.37349 F2400
G0 X160.839 Y93.444 F5400
G1 X181.435 Y114.040 E52.34223 F2400
G0 X182.000 Y114.040 F5400
G1 X160.839 Y92.879 E53.33757 F2400
G0 X160.839 Y92.313 F5400
G1 X182.566 Y114.040 E54.35953 F2400
G0 X183.132 Y114.040 F5400
G1 X160.839 Y91.747 E55.40809 F2400
G0 X160.839 Y91.181 F5400
G1 X183.697 Y114.040 E56.48327 F2400
G0 X184.263 Y114.040 F5400
G1 X160.839 Y90.616 E57.58505 F2400
G0 X160.839 Y90.050 F5400
G1 X184.829 Y114.040 E58.71343 F2400
G0 X185.394 Y114.040 F5400
G1 X160.839 Y89.484 E59.86843 F2400
G0 X160.839 Y88.919 F5400
G1 X185.960 Y114.040 E61.05004 F2400
G0 X186.526 Y114.040 F5400
G1 X160.839 Y88.353 E62.25825 F2400
G0 X160.839 Y87.787 F5400
G1 X187.092 Y114.040 E63.49308 F2400
G0 X187.657 Y114.040 F5400
G1 X160.839 Y87.222 E64.75450 F2400
G0 X160.839 Y86.656 F5400
G1 X188.223 Y114.040 E66.04254 F2400
G0 X188.789 Y114.040 F5400
G1 X160.839 Y86.090 E67.35719 F2400
G0 X161.275 Y85.960 F5400
G1 X189.354 Y114.040 E68.67794 F2400
G0 X189.920 Y114.040 F5400
G1 X161.841 Y85.960 E69.99870 F2400
G0 X162.407 Y85.960 F5400
G1 X190.486 Y114.040 E71.31945 F2400
G0 X191.051 Y114.040 F5400
G1 X162.972 Y85.960 E72.64021 F2400
G0 X163.538 Y85.960 F5400
G1 X191.617 Y114.040 E73.96096 F2400
G0 X192.183 Y114.040 F5400
G1 X164.104 Y85.960 E75.28172 F2400
G0 X164.669 Y85.960 F5400
G1 X192.748 Y114.040 E76.60247 F2400
G0 X193.314 Y114.040 F5400
G1 X165.235 Y85.960 E77.92323 F2400
G0 X165.801 Y85.960 F5400
G1 X193.880 Y114.040 E79.24398 F2400
G0 X194.445 Y114.040 F5400
G1 X166.366 Y85.960 E80.56474 F2400
G0 X166.932 Y85.960 F5400
G1 X195.011 Y114.040 E81.88549 F2400
G0 X195.577 Y114.040 F5400
G1 X167.498 Y85.960 E83.20625 F2400
G0 X168.063 Y85.960 F5400
G1 X196.143 Y114.040 E84.52700 F2400
G0 X196.708 Y114.040 F5400
G1 X168.629 Y85.960 E85.84776 F2400
G0 X169.195 Y85.960 F5400
G1 X197.274 Y114.040 E87.16851 F2400
G0 X197.840 Y114.040 F5400
G1 X169.761 Y85.960 E88.48927 F2400
G0 X170.326 Y85.960 F5400
G1 X198.405 Y114.040 E89.81002 F2400
G0 X198.971 Y114.040 F5400
G1 X170.892 Y85.960 E91.13078 F2400
G0 X171.458 Y85.960 F5400
G1 X199.537 Y114.040 E92.45153 F2400
G0 X200.102 Y114.040 F5400
G1 X172.023 Y85.960 E93.77229 F2400
G0 X172.589 Y85.960 F5400
G1 X200.668 Y114.040 E95.09304 F2400
G0 X201.234 Y114.040 F5400
G1 X173.155 Y85.960 E96.41380 F2400
G0 X173.720 Y85.960 F5400
G1 X201.799 Y114.040 E97.73455 F2400
G0 X202.365 Y114.040 F5400
G1 X174.286 Y85.960 E99.05531 F2400
G0 X174.852 Y85.960 F5400
G1 X202.931 Y114.040 E100.37606 F2400
G0 X203.496 Y114.040 F5400
G1 X175.417 Y85.960 E101.69682 F2400
G0 X175.983 Y85.960 F5400
G1 X204.062 Y114.040 E103.01757 F2400
G0 X204.628 Y114.040 F5400
G1 X176.549 Y85.960 E104.33833 F2400
G0 X177.114 Y85.960 F5400
G1 X205.194 Y114.040 E105.65908 F2400
G0 X205.759 Y114.040 F5400
G1 X177.680 Y85.960 E106.97984 F2400
G0 X178.246 Y85.960 F5400
G1 X206.325 Y114.040 E108.30059 F2400
G0 X206.891 Y114.040 F5400
G1 X178.811 Y85.960 E109.62135 F2400
G0 X179.377 Y85.960 F5400
G1 X207.456 Y114.040 E110.94210 F2400
G0 X208.022 Y114.040 F5400
G1 X179.943 Y85.960 E112.26286 F2400
G0 X180.509 Y85.960 F5400
G1 X208.588 Y114.040 E113.58361 F2400
G0 X209.153 Y114.040 F5400
G1 X181.074 Y85.960 E114.90437 F2400
G0 X181.640 Y85.960 F5400
G1 X209.719 Y114.040 E116.22512 F2400
G0 X210.285 Y114.040 F5400
G1 X182.206 Y85.960 E117.54588 F2400
G0 X182.771 Y85.960 F5400
G1 X210.850 Y114.040 E118.86663 F2400
G0 X211.416 Y114.040 F5400
G1 X183.337 Y85.960 E120.18739 F2400
G0 X183.903 Y85.960 F5400
G1 X211.982 Y114.040 E121.50814 F2400
G0 X212.547 Y114.040 F5400
G1 X184.468 Y85.960 E122.82890 F2400
G0 X185.034 Y85.960 F5400
G1 X213.113 Y114.040 E124.14965 F2400
G0 X213.679 Y114.040 F5400
G1 X185.600 Y85.960 E125.47041 F2400
G0 X186.165 Y85.960 F5400
G1 X214.244 Y114.040 E126.79116 F2400
G0 X214.810 Y114.040 F5400
G1 X186.731 Y85.960 E128.11191 F2400
G0 X187.297 Y85.960 F5400
G1 X215.376 Y114.040 E129.43266 F2400
G0 X215.942 Y114.040 F5400
G1 X187.862 Y85.960 E130.75342 F2400
G0 X188.428 Y85.960 F5400
G1 X216.507 Y114.040 E132.07417 F2400
G0 X217.073 Y114.040 F5400
G1 X188.994 Y85.960 E133.39493 F2400
G0 X189.560 Y85.960 F5400
G1 X217.639 Y114.040 E134.71568 F2400
G0 X218.204 Y114.040 F5400
G1 X190.125 Y85.960 E136.03644 F2400
G0 X190.691 Y85.961 F5400
G1 X218.770 Y114.040 E137.35719 F2400
G0 X219.336 Y114.040 F5400
G1 X191.257 Y85.961 E138.67795 F2400
G0 X191.822 Y85.961 F5400
G1 X219.901 Y114.040 E139.99870 F2400
G0 X220.467 Y114.040 F5400
G1 X192.388 Y85.961 E141.31946 F2400
G0 X192.954 Y85.961 F5400
G1 X221.033 Y114.040 E142.64021 F2400
G0 X221.598 Y114.040 F5400
G1 X193.519 Y85.960 E143.96097 F2400
G0 X194.085 Y85.961 F5400
G1 X222.164 Y114.040 E145.28172 F2400
G0 X222.730 Y114.040 F5400
G1 X194.651 Y85.961 E146.60248 F2400
G0 X195.216 Y85.961 F5400
G1 X223.295 Y114.040 E147.92323 F2400
G0 X223.861 Y114.040 F5400
G1 X195.782 Y85.961 E149.24399 F2400
G0 X196.348 Y85.961 F5400
G1 X224.427 Y114.040 E150.56474 F2400
G0 X224.993 Y114.040 F5400
G1 X196.913 Y85.961 E151.88550 F2400
G0 X197.479 Y85.961 F5400
G1 X225.558 Y114.040 E153.20625 F2400
G0 X226.124 Y114.040 F5400
G1 X198.045 Y85.961 E154.52701 F2400
G0 X198.611 Y85.961 F5400
G1 X226.690 Y114.040 E155.84776 F2400
G0 X227.255 Y114.040 F5400
G1 X199.176 Y85.961 E157.16852 F2400
G0 X199.742 Y85.961 F5400
G1 X227.821 Y114.040 E158.48927 F2400
G0 X228.387 Y114.040 F5400
G1 X200.308 Y85.961 E159.81003 F2400
G0 X200.873 Y85.961 F5400
G1 X228.952 Y114.040 E161.13078 F2400
G0 X229.518 Y114.040 F5400
G1 X201.439 Y85.961 E162.45154 F2400
G0 X202.005 Y85.961 F5400
G1 X230.084 Y114.040 E163.77229 F2400
G0 X230.649 Y114.040 F5400
G1 X202.570 Y85.961 E165.09305 F2400
G0 X203.136 Y85.961 F5400
G1 X231.215 Y114.040 E166.41380 F2400
G0 X231.781 Y114.040 F5400
G1 X203.702 Y85.961 E167.73456 F2400
G0 X204.267 Y85.961 F5400
G1 X232.346 Y114.040 E169.05532 F2400
G0 X232.912 Y114.040 F5400
G1 X204.833 Y85.961 E170.37606 F2400
G0 X205.399 Y85.961 F5400
G1 X233.478 Y114.040 E171.69682 F2400
G0 X234.044 Y114.040 F5400
G1 X205.964 Y85.961 E173.01758 F2400
G0 X206.530 Y85.961 F5400
G1 X234.609 Y114.040 E174.33834 F2400
G0 X235.175 Y114.040 F5400
G1 X207.096 Y85.961 E175.65908 F2400
G0 X207.661 Y85.961 F5400
G1 X235.741 Y114.040 E176.97984 F2400
G0 X236.306 Y114.040 F5400
G1 X208.227 Y85.961 E178.30060 F2400
G0 X208.793 Y85.961 F5400
G1 X236.872 Y114.040 E179.62136 F2400
G0 X237.438 Y114.040 F5400
G1 X209.359 Y85.961 E180.94210 F2400
G0 X209.924 Y85.961 F5400
G1 X238.003 Y114.040 E182.26286 F2400
G0 X238.569 Y114.040 F5400
G1 X210.490 Y85.961 E183.58362 F2400
G0 X211.056 Y85.961 F5400
G1 X239.135 Y114.040 E184.90438 F2400
G0 X239.700 Y114.040 F5400
G1 X211.621 Y85.961 E186.22512 F2400
G0 X212.187 Y85.961 F5400
G1 X239.918 Y113.692 E187.52952 F2400
G0 X239.918 Y113.126 F5400
G1 X212.753 Y85.961 E188.80732 F2400
G0 X213.318 Y85.961 F5400
G1 X239.918 Y112.561 E190.05850 F2400
G0 X239.918 Y111.995 F5400
G1 X213.884 Y85.961 E191.28308 F2400
G0 X214.450 Y85.961 F5400
G1 X239.918 Y111.429 E192.48104 F2400
G0 X239.918 Y110.864 F5400
G1 X215.015 Y85.961 E193.65240 F2400
G0 X215.581 Y85.961 F5400
G1 X239.918 Y110.298 E194.79714 F2400
G0 X239.918 Y109.732 F5400
G1 X216.147 Y85.961 E195.91530 F2400
G0 X216.713 Y85.961 F5400
G1 X239.918 Y109.166 E197.00684 F2400
G0 X239.918 Y108.601 F5400
G1 X217.278 Y85.961 E198.07176 F2400
G0 X217.844 Y85.961 F5400
G1 X239.918 Y108.035 E199.11008 F2400
G0 X239.918 Y107.469 F5400
G1 X218.410 Y85.961 E200.12178 F2400
G0 X218.975 Y85.961 F5400
G1 X239.918 Y106.904 E201.10688 F2400
G0 X239.918 Y106.338 F5400
G1 X219.541 Y85.961 E202.06538 F2400
G0 X220.107 Y85.961 F5400
G1 X239.918 Y105.772 E202.99726 F2400
G0 X239.918 Y105.207 F5400
G1 X220.672 Y85.961 E203.90254 F2400
G0 X221.238 Y85.961 F5400
G1 X239.918 Y104.641 E204.78120 F2400
G0 X239.918 Y104.075 F5400
G1 X221.804 Y85.961 E205.63328 F2400
G0 X222.369 Y85.961 F5400
G1 X239.918 Y103.510 E206.45872 F2400
G0 X239.918 Y102.944 F5400
G1 X222.935 Y85.961 E207.25756 F2400
G0 X223.501 Y85.961 F5400
G1 X239.918 Y102.378 E208.02980 F2400
G0 X239.918 Y101.813 F5400
G1 X224.066 Y85.961 E208.77542 F2400
G0 X224.632 Y85.961 F5400
G1 X239.918 Y101.247 E209.49444 F2400
G0 X239.918 Y100.681 F5400
G1 X225.198 Y85.961 E210.18686 F2400
G0 X225.763 Y85.961 F5400
G1 X239.918 Y100.115 E210.85266 F2400
G0 X239.918 Y99.550 F5400
G1 X226.329 Y85.961 E211.49186 F2400
G0 X226.895 Y85.961 F5400
G1 X239.918 Y98.984 E212.10444 F2400
G0 X239.918 Y98.418 F5400
G1 X227.461 Y85.961 E212.69042 F2400
G0 X228.026 Y85.961 F5400
G1 X239.918 Y97.853 E213.24978 F2400
G0 X239.918 Y97.287 F5400
G1 X228.592 Y85.961 E213.78254 F2400
G0 X229.158 Y85.961 F5400
G1 X239.918 Y96.721 E214.28870 F2400
G0 X239.918 Y96.156 F5400
G1 X229.723 Y85.961 E214.76824 F2400
G0 X230.289 Y85.961 F5400
G1 X239.918 Y95.590 E215.22118 F2400
G0 X239.918 Y95.024 F5400
G1 X230.855 Y85.961 E215.64750 F2400
G0 X231.420 Y85.961 F5400
G1 X239.918 Y94.459 E216.04722 F2400
G0 X239.918 Y93.893 F5400
G1 X231.986 Y85.961 E216.42034 F2400
G0 X232.552 Y85.961 F5400
G1 X239.918 Y93.327 E216.76684 F2400
G0 X239.918 Y92.762 F5400
G1 X233.117 Y85.961 E217.08674 F2400
G0 X233.683 Y85.961 F5400
G1 X239.918 Y92.196 E217.38002 F2400
G0 X239.918 Y91.630 F5400
G1 X234.249 Y85.961 E217.64670 F2400
G0 X234.814 Y85.961 F5400
G1 X239.918 Y91.064 E217.88676 F2400
G0 X239.918 Y90.499 F5400
G1 X235.380 Y85.961 E218.10024 F2400
G0 X235.946 Y85.961 F5400
G1 X239.918 Y89.933 E218.28710 F2400
G0 X239.918 Y89.367 F5400
G1 X236.512 Y85.961 E218.44734 F2400
G0 X237.077 Y85.961 F5400
G1 X239.918 Y88.802 E218.58098 F2400
G0 X239.918 Y88.236 F5400
G1 X237.643 Y85.961 E218.68800 F2400
G0 X238.209 Y85.961 F5400
G1 X239.918 Y87.670 E218.76844 F2400
G0 X239.918 Y87.105 F5400
G1 X238.774 Y85.961 E218.82226 F2400
G0 X239.340 Y85.961 F5400
G1 X239.918 Y86.539 E218.84946 F2400
G0 X239.918 Y85.973 F5400
G1 X239.906 Y85.961 E218.85006 F2400
G0 X161.070 Y114.039 F5400
G1 X157.991 Y110.961 E218.99488 F2400
G0 X157.426 Y110.961 F5400
G1 X160.504 Y114.039 E219.13970 F2400
G0 X159.939 Y114.039 F5400
G1 X156.860 Y110.961 E219.28452 F2400
G0 X156.294 Y110.961 F5400
G1 X159.373 Y114.039 E219.42934 F2400
G0 X158.807 Y114.039 F5400
G1 X155.728 Y110.961 E219.57416 F2400
G0 X155.163 Y110.961 F5400
G1 X158.242 Y114.039 E219.71898 F2400
G0 X157.676 Y114.039 F5400
G1 X154.597 Y110.961 E219.86380 F2400
G0 X154.031 Y110.961 F5400
G1 X157.110 Y114.039 E220.00862 F2400
G0 X156.544 Y114.039 F5400
G1 X153.466 Y110.961 E220.15344 F2400
G0 X152.900 Y110.961 F5400
G1 X155.979 Y114.039 E220.29826 F2400
G0 X155.413 Y114.039 F5400
G1 X152.334 Y110.961 E220.44308 F2400
G0 X151.769 Y110.961 F5400
G1 X154.847 Y114.039 E220.58790 F2400
G0 X154.282 Y114.039 F5400
G1 X151.203 Y110.961 E220.73272 F2400
G0 X150.637 Y110.961 F5400
G1 X153.716 Y114.039 E220.87754 F2400
G0 X153.150 Y114.039 F5400
G1 X150.072 Y110.961 E221.02236 F2400
G0 X149.506 Y110.961 F5400
G1 X152.585 Y114.039 E221.16720 F2400
G0 X152.019 Y114.039 F5400
G1 X148.940 Y110.961 E221.31202 F2400
G0 X148.375 Y110.961 F5400
G1 X151.453 Y114.039 E221.45684 F2400
G0 X150.888 Y114.039 F5400
G1 X147.809 Y110.961 E221.60166 F2400
G0 X147.243 Y110.961 F5400
G1 X150.322 Y114.039 E221.74646 F2400
G0 X149.756 Y114.039 F5400
G1 X146.677 Y110.961 E221.89128 F2400
G0 X146.112 Y110.961 F5400
G1 X149.191 Y114.039 E222.03610 F2400
G0 X148.625 Y114.039 F5400
G1 X145.546 Y110.961 E222.18092 F2400
G0 X144.980 Y110.961 F5400
G1 X148.059 Y114.039 E222.32574 F2400
G0 X147.493 Y114.039 F5400
G1 X144.415 Y110.961 E222.47056 F2400
G0 X143.849 Y110.961 F5400
G1 X146.928 Y114.039 E222.61538 F2400
G0 X146.362 Y114.039 F5400
G1 X143.283 Y110.961 E222.76020 F2400
G0 X142.718 Y110.961 F5400
G1 X145.796 Y114.039 E222.90502 F2400
G0 X145.231 Y114.039 F5400
G1 X142.152 Y110.961 E223.04986 F2400
G0 X141.586 Y110.961 F5400
G1 X144.665 Y114.039 E223.19468 F2400
G0 X144.099 Y114.039 F5400
G1 X141.021 Y110.961 E223.33950 F2400
G0 X140.455 Y110.961 F5400
G1 X143.534 Y114.039 E223.48432 F2400
G0 X142.968 Y114.039 F5400
G1 X139.889 Y110.961 E223.62914 F2400
G0 X139.324 Y110.961 F5400
G1 X142.402 Y114.039 E223.77396 F2400
G0 X141.837 Y114.039 F5400
G1 X138.758 Y110.961 E223.91878 F2400
G0 X138.192 Y110.961 F5400
G1 X141.271 Y114.039 E224.06360 F2400
G0 X140.705 Y114.039 F5400
G1 X137.627 Y110.961 E224.20842 F2400
G0 X137.061 Y110.961 F5400
G1 X140.140 Y114.039 E224.35324 F2400
G0 X139.574 Y114.039 F5400
G1 X136.495 Y110.961 E224.49806 F2400
G0 X135.929 Y110.961 F5400
G1 X139.008 Y114.039 E224.64288 F2400
G0 X138.443 Y114.039 F5400
G1 X135.364 Y110.961 E224.78770 F2400
G0 X134.798 Y110.961 F5400
G1 X137.877 Y114.039 E224.93252 F2400
G0 X137.311 Y114.039 F5400
G1 X134.232 Y110.961 E225.07734 F2400
G0 X133.667 Y110.961 F5400
G1 X136.745 Y114.039 E225.22216 F2400
G0 X136.180 Y114.039 F5400
G1 X133.101 Y110.961 E225.36698 F2400
G0 X132.535 Y110.961 F5400
G1 X135.614 Y114.039 E225.51182 F2400
G0 X135.048 Y114.039 F5400
G1 X131.970 Y110.961 E225.65664 F2400
G0 X131.404 Y110.961 F5400
G1 X134.483 Y114.039 E225.80146 F2400
G0 X133.917 Y114.039 F5400
G1 X130.838 Y110.961 E225.94628 F2400
G0 X130.273 Y110.961 F5400
G1 X133.351 Y114.039 E226.09110 F2400
G0 X132.786 Y114.039 F5400
G1 X129.707 Y110.961 E226.23592 F2400
G0 X129.141 Y110.961 F5400
G1 X132.220 Y114.039 E226.38074 F2400
G0 X131.654 Y114.039 F5400
G1 X128.576 Y110.961 E226.52556 F2400
G0 X128.010 Y110.961 F5400
G1 X131.089 Y114.039 E226.67038 F2400
G0 X130.523 Y114.039 F5400
G1 X127.444 Y110.961 E226.81520 F2400
G0 X126.878 Y110.961 F5400
G1 X129.957 Y114.039 E226.96002 F2400
G0 X129.392 Y114.039 F5400
G1 X126.313 Y110.961 E227.10484 F2400
G0 X125.747 Y110.961 F5400
G1 X128.826 Y114.039 E227.24966 F2400
G0 X128.260 Y114.039 F5400
G1 X125.181 Y110.961 E227.39448 F2400
G0 X124.616 Y110.961 F5400
G1 X127.694 Y114.039 E227.53930 F2400
G0 X127.129 Y114.039 F5400
G1 X124.050 Y110.961 E227.68412 F2400
G0 X123.484 Y110.961 F5400
G1 X126.563 Y114.039 E227.82894 F2400
G0 X125.997 Y114.039 F5400
G1 X122.919 Y110.961 E227.97378 F2400
G0 X122.353 Y110.961 F5400
G1 X125.432 Y114.039 E228.11860 F2400
G0 X124.866 Y114.039 F5400
G1 X121.787 Y110.961 E228.26342 F2400
G0 X121.222 Y110.961 F5400
G1 X124.300 Y114.039 E228.40824 F2400
G0 X123.735 Y114.039 F5400
G1 X120.656 Y110.961 E228.55306 F2400
G0 X120.090 Y110.961 F5400
G1 X123.169 Y114.039 E228.69788 F2400
G0 X122.603 Y114.039 F5400
G1 X119.525 Y110.961 E228.84270 F2400
G0 X118.959 Y110.961 F5400
G1 X122.038 Y114.039 E228.98752 F2400
G0 X121.472 Y114.039 F5400
G1 X118.393 Y110.961 E229.13234 F2400
G0 X117.827 Y110.961 F5400
G1 X120.906 Y114.039 E229.27716 F2400
G0 X120.341 Y114.039 F5400
G1 X117.262 Y110.961 E229.42198 F2400
G0 X116.696 Y110.961 F5400
G1 X119.775 Y114.039 E229.56680 F2400
G0 X119.209 Y114.039 F5400
G1 X116.130 Y110.961 E229.71162 F2400
G0 X115.565 Y110.961 F5400
G1 X118.643 Y114.039 E229.85644 F2400
G0 X118.078 Y114.039 F5400
G1 X114.999 Y110.961 E230.00126 F2400
G0 X114.433 Y110.961 F5400
G1 X117.512 Y114.039 E230.14608 F2400
G0 X116.946 Y114.039 F5400
G1 X113.868 Y110.961 E230.29090 F2400
G0 X113.302 Y110.961 F5400
G1 X116.381 Y114.039 E230.43572 F2400
G0 X115.815 Y114.039 F5400
G1 X112.736 Y110.961 E230.58056 F2400
G0 X112.171 Y110.961 F5400
G1 X115.249 Y114.039 E230.72538 F2400
G0 X114.684 Y114.039 F5400
G1 X111.605 Y110.961 E230.87020 F2400
G0 X111.039 Y110.961 F5400
G1 X114.118 Y114.039 E231.01502 F2400
G0 X113.552 Y114.039 F5400
G1 X110.840 Y111.327 E231.14260 F2400
G0 X110.840 Y111.892 F5400
G1 X112.987 Y114.039 E231.24360 F2400
G0 X112.421 Y114.039 F5400
G1 X110.840 Y112.458 E231.31800 F2400
G0 X110.840 Y113.024 F5400
G1 X111.855 Y114.039 E231.36576 F2400
G0 X111.290 Y114.039 F5400
G1 X110.840 Y113.589 E231.38694 F2400
; ------------------------------------
; Layer #1
; ------------------------------------
G92 E0 ;reset extr
G0 F3000 E-1.00000
G0 F600 Z0.400
G0 X110.479 Y114.400 F7200
G0 X109.300 Y115.300
G0 F3000 E0.00000
;segType:Support
G1 X71.500 Y115.300 E1.06865 F3600
G1 X71.500 Y113.500 E1.11954
G1 X109.300 Y113.500 E2.18818
G1 X109.300 Y111.700 E2.23907
G1 X71.500 Y111.700 E3.30772
G1 X71.500 Y109.900 E3.35861
G1 X109.300 Y109.900 E4.42726
G0 F3000 E3.42726
G0 X110.479 Y110.601 F7200
G0 X160.479 Y110.601
G0 X185.528 Y85.960
G0 F3000 E4.42726
;segType:HShell
G1 X160.839 Y110.649 E5.58855 F3600
G0 X159.962 Y110.961 F7200
G1 X156.884 Y114.039 E5.73336 F3600
G0 X157.449 Y114.039 F7200
G1 X160.528 Y110.961 E5.87818 F3600
G0 X160.079 Y110.941 F7200
;segType:Perimeter
G1 X160.079 Y110.141 E5.90478 F2160
G1 X160.079 Y85.200 E6.73430
G1 X240.679 Y85.200 E9.41504
G1 X240.679 Y114.800 E10.39951
G1 X110.079 Y114.800 E14.74326
G1 X110.079 Y110.201 E14.89622
G1 X160.019 Y110.201 E16.55723
G0 X159.852 Y110.601 F7200
G0 X160.479 Y110.601
G0 X160.479 Y109.101
G0 X160.479 Y109.101
;segType:Loop
G1 X160.479 Y85.600 E17.33885 F3600
G1 X240.279 Y85.600 E19.99298
G1 X240.279 Y114.400 E20.95085
G1 X110.479 Y114.400 E25.26798
G1 X110.479 Y110.601 E25.39434
G1 X160.479 Y110.601 E27.05734
G1 X160.479 Y109.301 E27.10058
G0 F3000 E26.10058
G0 X160.479 Y109.301 F7200
G0 X160.479 Y110.601
G0 X121.979 Y110.601
G0 X111.313 Y110.961
G0 F3000 E27.10058
;segType:HShell
G1 X110.840 Y111.434 E27.12287 F3600
G0 X110.840 Y112.000 F7200
G1 X111.879 Y110.961 E27.17176 F3600
G0 X112.445 Y110.961 F7200
G1 X110.840 Y112.566 E27.24727 F3600
G0 X110.840 Y113.132 F7200
G1 X113.010 Y110.961 E27.34938 F3600
G0 X113.576 Y110.961 F7200
G1 X110.840 Y113.697 E27.47810 F3600
G0 X111.063 Y114.039 F7200
G1 X114.142 Y110.961 E27.62291 F3600
G0 X114.707 Y110.961 F7200
G1 X111.629 Y114.039 E27.76773 F3600
G0 X112.194 Y114.039 F7200
G1 X115.273 Y110.961 E27.91254 F3600
G0 X115.839 Y110.961 F7200
G1 X112.760 Y114.039 E28.05736 F3600
G0 X113.326 Y114.039 F7200
G1 X116.405 Y110.961 E28.20217 F3600
G0 X116.970 Y110.961 F7200
G1 X113.891 Y114.039 E28.34698 F3600
G0 X114.457 Y114.039 F7200
G1 X117.536 Y110.961 E28.49180 F3600
G0 X118.102 Y110.961 F7200
G1 X115.023 Y114.039 E28.63661 F3600
G0 X115.589 Y114.039 F7200
G1 X118.667 Y110.961 E28.78142 F3600
G0 X119.233 Y110.961 F7200
G1 X116.154 Y114.039 E28.92624 F3600
G0 X116.720 Y114.039 F7200
G1 X119.799 Y110.961 E29.07105 F3600
G0 X120.364 Y110.961 F7200
G1 X117.286 Y114.039 E29.21586 F3600
G0 X117.851 Y114.039 F7200
G1 X120.930 Y110.961 E29.36068 F3600
G0 X121.496 Y110.961 F7200
G1 X118.417 Y114.039 E29.50549 F3600
G0 X118.983 Y114.039 F7200
G1 X122.061 Y110.961 E29.65030 F3600
G0 X122.627 Y110.961 F7200
G1 X119.548 Y114.039 E29.79512 F3600
G0 X120.114 Y114.039 F7200
G1 X123.193 Y110.961 E29.93993 F3600
G0 X123.758 Y110.961 F7200
G1 X120.680 Y114.039 E30.08474 F3600
G0 X121.245 Y114.039 F7200
G1 X124.324 Y110.961 E30.22956 F3600
G0 X124.890 Y110.961 F7200
G1 X121.811 Y114.039 E30.37437 F3600
G0 X122.377 Y114.039 F7200
G1 X125.456 Y110.961 E30.51919 F3600
G0 X126.021 Y110.961 F7200
G1 X122.942 Y114.039 E30.66400 F3600
G0 X123.508 Y114.039 F7200
G1 X126.587 Y110.961 E30.80881 F3600
G0 X127.153 Y110.961 F7200
G1 X124.074 Y114.039 E30.95363 F3600
G0 X124.640 Y114.039 F7200
G1 X127.718 Y110.961 E31.09844 F3600
G0 X128.284 Y110.961 F7200
G1 X125.205 Y114.039 E31.24325 F3600
G0 X125.771 Y114.039 F7200
G1 X128.850 Y110.961 E31.38807 F3600
G0 X129.415 Y110.961 F7200
G1 X126.337 Y114.039 E31.53288 F3600
G0 X126.902 Y114.039 F7200
G1 X129.981 Y110.961 E31.67769 F3600
G0 X130.547 Y110.961 F7200
G1 X127.468 Y114.039 E31.82251 F3600
G0 X128.034 Y114.039 F7200
G1 X131.112 Y110.961 E31.96732 F3600
G0 X131.678 Y110.961 F7200
G1 X128.599 Y114.039 E32.11213 F3600
G0 X129.165 Y114.039 F7200
G1 X132.244 Y110.961 E32.25695 F3600
G0 X132.809 Y110.961 F7200
G1 X129.731 Y114.039 E32.40176 F3600
G0 X130.296 Y114.039 F7200
G1 X133.375 Y110.961 E32.54657 F3600
G0 X133.941 Y110.961 F7200
G1 X130.862 Y114.039 E32.69139 F3600
G0 X131.428 Y114.039 F7200
G1 X134.506 Y110.961 E32.83620 F3600
G0 X135.072 Y110.961 F7200
G1 X131.993 Y114.039 E32.98102 F3600
G0 X132.559 Y114.039 F7200
G1 X135.638 Y110.961 E33.12583 F3600
G0 X136.204 Y110.961 F7200
G1 X133.125 Y114.039 E33.27064 F3600
G0 X133.690 Y114.039 F7200
G1 X136.769 Y110.961 E33.41546 F3600
G0 X137.335 Y110.961 F7200
G1 X134.256 Y114.039 E33.56027 F3600
G0 X134.822 Y114.039 F7200
G1 X137.901 Y110.961 E33.70508 F3600
G0 X138.466 Y110.961 F7200
G1 X135.388 Y114.039 E33.84990 F3600
G0 X135.953 Y114.039 F7200
G1 X139.032 Y110.961 E33.99471 F3600
G0 X139.598 Y110.961 F7200
G1 X136.519 Y114.039 E34.13952 F3600
G0 X137.085 Y114.039 F7200
G1 X140.163 Y110.961 E34.28434 F3600
G0 X140.729 Y110.961 F7200
G1 X137.650 Y114.039 E34.42915 F3600
G0 X138.216 Y114.039 F7200
G1 X141.295 Y110.961 E34.57396 F3600
G0 X141.860 Y110.961 F7200
G1 X138.782 Y114.039 E34.71878 F3600
G0 X139.347 Y114.039 F7200
G1 X142.426 Y110.961 E34.86359 F3600
G0 X142.992 Y110.961 F7200
G1 X139.913 Y114.039 E35.00841 F3600
G0 X140.479 Y114.039 F7200
G1 X143.557 Y110.961 E35.15322 F3600
G0 X144.123 Y110.961 F7200
G1 X141.044 Y114.039 E35.29803 F3600
G0 X141.610 Y114.039 F7200
G1 X144.689 Y110.961 E35.44285 F3600
G0 X145.255 Y110.961 F7200
G1 X142.176 Y114.039 E35.58766 F3600
G0 X142.741 Y114.039 F7200
G1 X145.820 Y110.961 E35.73247 F3600
G0 X146.386 Y110.961 F7200
G1 X143.307 Y114.039 E35.87729 F3600
G0 X143.873 Y114.039 F7200
G1 X146.952 Y110.961 E36.02210 F3600
G0 X147.517 Y110.961 F7200
G1 X144.439 Y114.039 E36.16691 F3600
G0 X145.004 Y114.039 F7200
G1 X148.083 Y110.961 E36.31173 F3600
G0 X148.649 Y110.961 F7200
G1 X145.570 Y114.039 E36.45654 F3600
G0 X146.136 Y114.039 F7200
G1 X149.214 Y110.961 E36.60135 F3600
G0 X149.780 Y110.961 F7200
G1 X146.701 Y114.039 E36.74617 F3600
G0 X147.267 Y114.039 F7200
G1 X150.346 Y110.961 E36.89098 F3600
G0 X150.911 Y110.961 F7200
G1 X147.833 Y114.039 E37.03579 F3600
G0 X148.398 Y114.039 F7200
G1 X151.477 Y110.961 E37.18061 F3600
G0 X152.043 Y110.961 F7200
G1 X148.964 Y114.039 E37.32542 F3600
G0 X149.530 Y114.039 F7200
G1 X152.608 Y110.961 E37.47024 F3600
G0 X153.174 Y110.961 F7200
G1 X150.095 Y114.039 E37.61505 F3600
G0 X150.661 Y114.039 F7200
G1 X153.740 Y110.961 E37.75986 F3600
G0 X154.306 Y110.961 F7200
G1 X151.227 Y114.039 E37.90468 F3600
G0 X151.792 Y114.039 F7200
G1 X154.871 Y110.961 E38.04949 F3600
G0 X155.437 Y110.961 F7200
G1 X152.358 Y114.039 E38.19430 F3600
G0 X152.924 Y114.039 F7200
G1 X156.003 Y110.961 E38.33912 F3600
G0 X156.568 Y110.961 F7200
G1 X153.490 Y114.039 E38.48393 F3600
G0 X154.055 Y114.039 F7200
G1 X157.134 Y110.961 E38.62874 F3600
G0 X157.700 Y110.961 F7200
G1 X154.621 Y114.039 E38.77356 F3600
G0 X155.187 Y114.039 F7200
G1 X158.265 Y110.961 E38.91837 F3600
G0 X158.831 Y110.961 F7200
G1 X155.752 Y114.039 E39.06318 F3600
G0 X156.318 Y114.039 F7200
G1 X159.397 Y110.961 E39.20800 F3600
G0 X160.839 Y110.084 F7200
G1 X184.963 Y85.960 E40.34268 F3600
G0 X184.397 Y85.960 F7200
G1 X160.839 Y109.518 E41.45075 F3600
G0 X160.839 Y108.952 F7200
G1 X183.831 Y85.960 E42.53222 F3600
G0 X183.266 Y85.960 F7200
G1 X160.839 Y108.387 E43.58707 F3600
G0 X160.839 Y107.821 F7200
G1 X182.700 Y85.960 E44.61532 F3600
G0 X182.134 Y85.960 F7200
G1 X160.839 Y107.255 E45.61696 F3600
G0 X160.839 Y106.689 F7200
G1 X181.568 Y85.960 E46.59199 F3600
G0 X181.003 Y85.960 F7200
G1 X160.839 Y106.124 E47.54042 F3600
G0 X160.839 Y105.558 F7200
G1 X180.437 Y85.960 E48.46223 F3600
G0 X179.871 Y85.960 F7200
G1 X160.839 Y104.992 E49.35744 F3600
G0 X160.839 Y104.427 F7200
G1 X179.306 Y85.960 E50.22603 F3600
G0 X178.740 Y85.960 F7200
G1 X160.839 Y103.861 E51.06803 F3600
G0 X160.839 Y103.295 F7200
G1 X178.174 Y85.960 E51.88341 F3600
G0 X177.609 Y85.960 F7200
G1 X160.839 Y102.730 E52.67218 F3600
G0 X160.839 Y102.164 F7200
G1 X177.043 Y85.960 E53.43435 F3600
G0 X176.477 Y85.960 F7200
G1 X160.839 Y101.598 E54.16991 F3600
G0 X160.839 Y101.033 F7200
G1 X175.912 Y85.960 E54.87886 F3600
G0 X175.346 Y85.960 F7200
G1 X160.839 Y100.467 E55.56119 F3600
G0 X160.839 Y99.901 F7200
G1 X174.780 Y85.960 E56.21693 F3600
G0 X174.215 Y85.960 F7200
G1 X160.839 Y99.336 E56.84605 F3600
G0 X160.839 Y98.770 F7200
G1 X173.649 Y85.960 E57.44857 F3600
G0 X173.083 Y85.960 F7200
G1 X160.839 Y98.204 E58.02447 F3600
G0 X160.839 Y97.638 F7200
G1 X172.517 Y85.960 E58.57377 F3600
G0 X171.952 Y85.960 F7200
G1 X160.839 Y97.073 E59.09647 F3600
G0 X160.839 Y96.507 F7200
G1 X171.386 Y85.960 E59.59255 F3600
G0 X170.820 Y85.960 F7200
G1 X160.839 Y95.941 E60.06203 F3600
G0 X160.839 Y95.376 F7200
G1 X170.255 Y85.960 E60.50489 F3600
G0 X169.689 Y85.960 F7200
G1 X160.839 Y94.810 E60.92115 F3600
G0 X160.839 Y94.244 F7200
G1 X169.123 Y85.960 E61.31080 F3600
G0 X168.558 Y85.960 F7200
G1 X160.839 Y93.679 E61.67385 F3600
G0 X160.839 Y93.113 F7200
G1 X167.992 Y85.960 E62.01028 F3600
G0 X167.426 Y85.960 F7200
G1 X160.839 Y92.547 E62.32011 F3600
G0 X160.839 Y91.982 F7200
G1 X166.861 Y85.960 E62.60332 F3600
G0 X166.295 Y85.960 F7200
G1 X160.839 Y91.416 E62.85993 F3600
G0 X160.839 Y90.850 F7200
G1 X165.729 Y85.960 E63.08993 F3600
G0 X165.164 Y85.960 F7200
G1 X160.839 Y90.285 E63.29333 F3600
G0 X160.839 Y89.719 F7200
G1 X164.598 Y85.960 E63.47011 F3600
G0 X164.032 Y85.960 F7200
G1 X160.839 Y89.153 E63.62029 F3600
G0 X160.839 Y88.587 F7200
G1 X163.466 Y85.960 E63.74386 F3600
G0 X162.901 Y85.960 F7200
G1 X160.839 Y88.022 E63.84082 F3600
G0 X160.839 Y87.456 F7200
G1 X162.335 Y85.960 E63.91117 F3600
G0 X161.769 Y85.960 F7200
G1 X160.839 Y86.890 E63.95491 F3600
G0 X160.839 Y86.325 F7200
G1 X161.204 Y85.960 E63.97204 F3600
G0 X186.094 Y85.960 F7200
G1 X158.015 Y114.039 E65.29279 F3600
G0 X158.581 Y114.039 F7200
G1 X186.660 Y85.960 E66.61354 F3600
G0 X187.225 Y85.960 F7200
G1 X159.146 Y114.039 E67.93428 F3600
G0 X159.712 Y114.039 F7200
G1 X187.791 Y85.960 E69.25503 F3600
G0 X188.357 Y85.960 F7200
G1 X160.278 Y114.039 E70.57578 F3600
G0 X160.843 Y114.039 F7200
G1 X188.922 Y85.960 E71.89653 F3600
G0 X189.488 Y85.960 F7200
G1 X161.409 Y114.039 E73.21727 F3600
G0 X161.975 Y114.039 F7200
G1 X190.054 Y85.960 E74.53802 F3600
G0 X190.619 Y85.960 F7200
G1 X162.541 Y114.039 E75.85877 F3600
G0 X163.106 Y114.039 F7200
G1 X191.185 Y85.960 E77.17951 F3600
G0 X191.751 Y85.960 F7200
G1 X163.672 Y114.039 E78.50026 F3600
G0 X164.238 Y114.039 F7200
G1 X192.316 Y85.960 E79.82101 F3600
G0 X192.882 Y85.960 F7200
G1 X164.803 Y114.039 E81.14176 F3600
G0 X165.369 Y114.039 F7200
G1 X193.448 Y85.960 E82.46250 F3600
G0 X194.014 Y85.960 F7200
G1 X165.935 Y114.039 E83.78325 F3600
G0 X166.500 Y114.039 F7200
G1 X194.579 Y85.960 E85.10400 F3600
G0 X195.145 Y85.960 F7200
G1 X167.066 Y114.039 E86.42474 F3600
G0 X167.632 Y114.039 F7200
G1 X195.711 Y85.960 E87.74549 F3600
G0 X196.276 Y85.960 F7200
G1 X168.197 Y114.039 E89.06624 F3600
G0 X168.763 Y114.039 F7200
G1 X196.842 Y85.960 E90.38699 F3600
G0 X197.408 Y85.960 F7200
G1 X169.329 Y114.039 E91.70773 F3600
G0 X169.894 Y114.039 F7200
G1 X197.973 Y85.960 E93.02848 F3600
G0 X198.539 Y85.960 F7200
G1 X170.460 Y114.039 E94.34923 F3600
G0 X171.026 Y114.039 F7200
G1 X199.105 Y85.960 E95.66998 F3600
G0 X199.670 Y85.960 F7200
G1 X171.591 Y114.039 E96.99072 F3600
G0 X172.157 Y114.039 F7200
G1 X200.236 Y85.960 E98.31147 F3600
G0 X200.802 Y85.960 F7200
G1 X172.723 Y114.039 E99.63222 F3600
G0 X173.289 Y114.039 F7200
G1 X201.367 Y85.960 E100.95296 F3600
G0 X201.933 Y85.960 F7200
G1 X173.854 Y114.039 E102.27371 F3600
G0 X174.420 Y114.039 F7200
G1 X202.499 Y85.960 E103.59446 F3600
G0 X203.065 Y85.960 F7200
G1 X174.986 Y114.039 E104.91521 F3600
G0 X175.551 Y114.039 F7200
G1 X203.630 Y85.960 E106.23595 F3600
G0 X204.196 Y85.960 F7200
G1 X176.117 Y114.039 E107.55670 F3600
G0 X176.683 Y114.039 F7200
G1 X204.762 Y85.960 E108.87745 F3600
G0 X205.327 Y85.960 F7200
G1 X177.248 Y114.039 E110.19820 F3600
G0 X177.814 Y114.039 F7200
G1 X205.893 Y85.960 E111.51894 F3600
G0 X206.459 Y85.960 F7200
G1 X178.380 Y114.039 E112.83969 F3600
G0 X178.945 Y114.039 F7200
G1 X207.024 Y85.960 E114.16044 F3600
G0 X207.590 Y85.960 F7200
G1 X179.511 Y114.039 E115.48119 F3600
G0 X180.077 Y114.039 F7200
G1 X208.156 Y85.960 E116.80193 F3600
G0 X208.721 Y85.960 F7200
G1 X180.642 Y114.039 E118.12268 F3600
G0 X181.208 Y114.039 F7200
G1 X209.287 Y85.960 E119.44343 F3600
G0 X209.853 Y85.960 F7200
G1 X181.774 Y114.039 E120.76418 F3600
G0 X182.340 Y114.039 F7200
G1 X210.418 Y85.960 E122.08492 F3600
G0 X210.984 Y85.960 F7200
G1 X182.905 Y114.039 E123.40567 F3600
G0 X183.471 Y114.039 F7200
G1 X211.550 Y85.960 E124.72642 F3600
G0 X212.116 Y85.960 F7200
G1 X184.037 Y114.039 E126.04716 F3600
G0 X184.602 Y114.039 F7200
G1 X212.681 Y85.960 E127.36791 F3600
G0 X213.247 Y85.960 F7200
G1 X185.168 Y114.039 E128.68866 F3600
G0 X185.734 Y114.039 F7200
G1 X213.813 Y85.960 E130.00940 F3600
G0 X214.378 Y85.960 F7200
G1 X186.299 Y114.039 E131.33014 F3600
G0 X186.865 Y114.039 F7200
G1 X214.944 Y85.960 E132.65088 F3600
G0 X215.510 Y85.960 F7200
G1 X187.431 Y114.039 E133.97162 F3600
G0 X187.996 Y114.039 F7200
G1 X216.075 Y85.960 E135.29236 F3600
G0 X216.641 Y85.960 F7200
G1 X188.562 Y114.039 E136.61310 F3600
G0 X189.128 Y114.039 F7200
G1 X217.207 Y85.960 E137.93384 F3600
G0 X217.772 Y85.960 F7200
G1 X189.693 Y114.039 E139.25458 F3600
G0 X190.259 Y114.039 F7200
G1 X218.338 Y85.960 E140.57532 F3600
G0 X218.904 Y85.960 F7200
G1 X190.825 Y114.039 E141.89606 F3600
G0 X191.391 Y114.039 F7200
G1 X219.469 Y85.960 E143.21680 F3600
G0 X220.035 Y85.960 F7200
G1 X191.956 Y114.039 E144.53754 F3600
G0 X192.522 Y114.039 F7200
G1 X220.601 Y85.960 E145.85828 F3600
G0 X221.166 Y85.960 F7200
G1 X193.088 Y114.039 E147.17902 F3600
G0 X193.653 Y114.039 F7200
G1 X221.732 Y85.960 E148.49976 F3600
G0 X222.298 Y85.960 F7200
G1 X194.219 Y114.039 E149.82050 F3600
G0 X194.785 Y114.039 F7200
G1 X222.864 Y85.960 E151.14124 F3600
G0 X223.429 Y85.960 F7200
G1 X195.350 Y114.039 E152.46198 F3600
G0 X195.916 Y114.039 F7200
G1 X223.995 Y85.960 E153.78271 F3600
G0 X224.561 Y85.960 F7200
G1 X196.482 Y114.039 E155.10345 F3600
G0 X197.047 Y114.039 F7200
G1 X225.126 Y85.960 E156.42419 F3600
G0 X225.692 Y85.960 F7200
G1 X197.613 Y114.039 E157.74493 F3600
G0 X198.179 Y114.039 F7200
G1 X226.258 Y85.960 E159.06567 F3600
G0 X226.823 Y85.960 F7200
G1 X198.744 Y114.039 E160.38641 F3600
G0 X199.310 Y114.039 F7200
G1 X227.389 Y85.960 E161.70715 F3600
G0 X227.955 Y85.960 F7200
G1 X199.876 Y114.039 E163.02789 F3600
G0 X200.442 Y114.039 F7200
G1 X228.520 Y85.960 E164.34863 F3600
G0 X229.086 Y85.960 F7200
G1 X201.007 Y114.039 E165.66937 F3600
G0 X201.573 Y114.039 F7200
G1 X229.652 Y85.960 E166.99011 F3600
G0 X230.217 Y85.960 F7200
G1 X202.139 Y114.039 E168.31086 F3600
G0 X202.704 Y114.039 F7200
G1 X230.783 Y85.960 E169.63160 F3600
G0 X231.349 Y85.960 F7200
G1 X203.270 Y114.039 E170.95234 F3600
G0 X203.836 Y114.039 F7200
G1 X231.915 Y85.960 E172.27308 F3600
G0 X232.480 Y85.960 F7200
G1 X204.401 Y114.039 E173.59382 F3600
G0 X204.967 Y114.039 F7200
G1 X233.046 Y85.960 E174.91456 F3600
G0 X233.612 Y85.960 F7200
G1 X205.533 Y114.039 E176.23530 F3600
G0 X206.098 Y114.039 F7200
G1 X234.177 Y85.960 E177.55604 F3600
G0 X234.743 Y85.960 F7200
G1 X206.664 Y114.039 E178.87678 F3600
G0 X207.230 Y114.039 F7200
G1 X235.309 Y85.960 E180.19750 F3600
G0 X235.874 Y85.960 F7200
G1 X207.795 Y114.039 E181.51824 F3600
G0 X208.361 Y114.039 F7200
G1 X236.440 Y85.960 E182.83898 F3600
G0 X237.006 Y85.960 F7200
G1 X208.927 Y114.039 E184.15972 F3600
G0 X209.493 Y114.039 F7200
G1 X237.571 Y85.960 E185.48046 F3600
G0 X238.137 Y85.960 F7200
G1 X210.058 Y114.039 E186.80120 F3600
G0 X210.624 Y114.039 F7200
G1 X238.703 Y85.960 E188.12194 F3600
G0 X239.268 Y85.960 F7200
G1 X211.190 Y114.039 E189.44268 F3600
G0 X211.755 Y114.039 F7200
G1 X239.834 Y85.960 E190.76342 F3600
G0 X239.918 Y86.442 F7200
G1 X212.321 Y114.039 E192.06152 F3600
G0 X212.887 Y114.039 F7200
G1 X239.918 Y87.007 E193.33300 F3600
G0 X239.918 Y87.573 F7200
G1 X213.452 Y114.039 E194.57790 F3600
G0 X214.018 Y114.039 F7200
G1 X239.918 Y88.139 E195.79618 F3600
G0 X239.918 Y88.704 F7200
G1 X214.584 Y114.039 E196.98784 F3600
G0 X215.149 Y114.039 F7200
G1 X239.918 Y89.270 E198.15290 F3600
G0 X239.918 Y89.836 F7200
G1 X215.715 Y114.039 E199.29136 F3600
G0 X216.281 Y114.039 F7200
G1 X239.918 Y90.402 E200.40320 F3600
G0 X239.918 Y90.967 F7200
G1 X216.846 Y114.039 E201.48844 F3600
G0 X217.412 Y114.039 F7200
G1 X239.918 Y91.533 E202.54706 F3600
G0 X239.918 Y92.099 F7200
G1 X217.978 Y114.039 E203.57908 F3600
G0 X218.543 Y114.039 F7200
G1 X239.918 Y92.664 E204.58448 F3600
G0 X239.918 Y93.230 F7200
G1 X219.109 Y114.039 E205.56330 F3600
G0 X219.675 Y114.039 F7200
G1 X239.918 Y93.796 E206.51548 F3600
G0 X239.918 Y94.361 F7200
G1 X220.241 Y114.039 E207.44108 F3600
G0 X220.806 Y114.039 F7200
G1 X239.918 Y94.927 E208.34004 F3600
G0 X239.918 Y95.493 F7200
G1 X221.372 Y114.039 E209.21242 F3600
G0 X221.938 Y114.039 F7200
G1 X239.918 Y96.058 E210.05818 F3600
G0 X239.918 Y96.624 F7200
G1 X222.503 Y114.039 E210.87734 F3600
G0 X223.069 Y114.039 F7200
G1 X239.918 Y97.190 E211.66988 F3600
G0 X239.918 Y97.755 F7200
G1 X223.635 Y114.039 E212.43580 F3600
G0 X224.200 Y114.039 F7200
G1 X239.918 Y98.321 E213.17514 F3600
G0 X239.918 Y98.887 F7200
G1 X224.766 Y114.039 E213.88786 F3600
G0 X225.332 Y114.039 F7200
G1 X239.918 Y99.452 E214.57398 F3600
G0 X239.918 Y100.018 F7200
G1 X225.897 Y114.039 E215.23348 F3600
G0 X226.463 Y114.039 F7200
G1 X239.918 Y100.584 E215.86636 F3600
G0 X239.918 Y101.150 F7200
G1 X227.029 Y114.039 E216.47266 F3600
G0 X227.594 Y114.039 F7200
G1 X239.918 Y101.715 E217.05234 F3600
G0 X239.918 Y102.281 F7200
G1 X228.160 Y114.039 E217.60540 F3600
G0 X228.726 Y114.039 F7200
G1 X239.918 Y102.847 E218.13186 F3600
G0 X239.918 Y103.412 F7200
G1 X229.292 Y114.039 E218.63172 F3600
G0 X229.857 Y114.039 F7200
G1 X239.918 Y103.978 E219.10496 F3600
G0 X239.918 Y104.544 F7200
G1 X230.423 Y114.039 E219.55160 F3600
G0 X230.989 Y114.039 F7200
G1 X239.918 Y105.109 E219.97164 F3600
G0 X239.918 Y105.675 F7200
G1 X231.554 Y114.039 E220.36506 F3600
G0 X232.120 Y114.039 F7200
G1 X239.918 Y106.241 E220.73186 F3600
G0 X239.918 Y106.806 F7200
G1 X232.686 Y114.039 E221.07206 F3600
G0 X233.251 Y114.039 F7200
G1 X239.918 Y107.372 E221.38566 F3600
G0 X239.918 Y107.938 F7200
G1 X233.817 Y114.039 E221.67266 F3600
G0 X234.383 Y114.039 F7200
G1 X239.918 Y108.503 E221.93302 F3600
G0 X239.918 Y109.069 F7200
G1 X234.948 Y114.039 E222.16680 F3600
G0 X235.514 Y114.039 F7200
G1 X239.918 Y109.635 E222.37396 F3600
G0 X239.918 Y110.201 F7200
G1 X236.080 Y114.039 E222.55452 F3600
G0 X236.645 Y114.039 F7200
G1 X239.918 Y110.766 E222.70846 F3600
G0 X239.918 Y111.332 F7200
G1 X237.211 Y114.039 E222.83580 F3600
G0 X237.777 Y114.039 F7200
G1 X239.918 Y111.898 E222.93652 F3600
G0 X239.918 Y112.463 F7200
G1 X238.343 Y114.039 E223.01066 F3600
G0 X238.908 Y114.039 F7200
G1 X239.918 Y113.029 E223.05816 F3600
G0 X239.918 Y113.595 F7200
G1 X239.474 Y114.039 E223.07908 F3600
; ------------------------------------
; Layer #2
; ------------------------------------
G92 E0 ;reset extr
G0 F3000 E-1.00000
G0 F600 Z0.600
G0 X109.300 Y111.700 F7200
G0 F3000 E0.00000
;segType:Support
G1 X71.500 Y111.700 E1.06865 F3600
G1 X71.500 Y109.900 E1.11954
G1 X109.300 Y109.900 E2.18818
G0 X109.300 Y115.300 F7200
G1 X71.500 Y115.300 E3.25683 F3600
G1 X71.500 Y113.500 E3.30772
G1 X109.300 Y113.500 E4.37637
G0 F3000 E3.37637
G0 X162.201 Y114.039 F7200
G0 F3000 E4.37637
;segType:HShell
G1 X159.123 Y110.961 E4.52118 F3600
G0 X159.688 Y110.961 F7200
G1 X162.767 Y114.039 E4.66599 F3600
G0 X163.332 Y114.039 F7200
G1 X160.254 Y110.961 E4.81079 F3600
G0 X160.079 Y110.941 F7200
;segType:Perimeter
G1 X160.079 Y110.141 E4.83740 F2160
G1 X160.079 Y85.200 E5.66692
G1 X240.679 Y85.200 E8.34766
G1 X240.679 Y114.800 E9.33213
G1 X110.079 Y114.800 E13.67588
G1 X110.079 Y110.201 E13.82884
G1 X160.019 Y110.201 E15.48985
G0 X159.852 Y110.601 F7200
G0 X160.479 Y110.601
G0 X160.479 Y109.101
G0 X160.479 Y109.101
;segType:Loop
G1 X160.479 Y85.600 E16.27147 F3600
G1 X240.279 Y85.600 E18.92560
G1 X240.279 Y114.400 E19.88347
G1 X110.479 Y114.400 E24.20060
G1 X110.479 Y110.601 E24.32696
G1 X160.479 Y110.601 E25.98996
G1 X160.479 Y109.301 E26.03320
G0 X160.820 Y110.961 F7200
;segType:HShell
G1 X163.898 Y114.039 E26.17801 F3600
G0 X164.464 Y114.039 F7200
G1 X160.839 Y110.415 E26.34849 F3600
G0 X160.839 Y109.849 F7200
G1 X165.030 Y114.039 E26.54558 F3600
G0 X165.595 Y114.039 F7200
G1 X160.839 Y109.283 E26.76927 F3600
G0 X160.839 Y108.718 F7200
G1 X166.161 Y114.039 E27.01958 F3600
G0 X166.727 Y114.039 F7200
G1 X160.839 Y108.152 E27.29649 F3600
G0 X160.839 Y107.586 F7200
G1 X167.292 Y114.039 E27.60001 F3600
G0 X167.858 Y114.039 F7200
G1 X160.839 Y107.021 E27.93014 F3600
G0 X160.839 Y106.455 F7200
G1 X168.424 Y114.039 E28.28688 F3600
G0 X168.989 Y114.039 F7200
G1 X160.839 Y105.889 E28.67023 F3600
G0 X160.839 Y105.324 F7200
G1 X169.555 Y114.039 E29.08018 F3600
G0 X170.121 Y114.039 F7200
G1 X160.839 Y104.758 E29.51675 F3600
G0 X160.839 Y104.192 F7200
G1 X170.686 Y114.039 E29.97992 F3600
G0 X171.252 Y114.039 F7200
G1 X160.839 Y103.627 E30.46970 F3600
G0 X160.839 Y103.061 F7200
G1 X171.818 Y114.039 E30.98608 F3600
G0 X172.383 Y114.039 F7200
G1 X160.839 Y102.495 E31.52908 F3600
G0 X160.839 Y101.930 F7200
G1 X172.949 Y114.039 E32.09868 F3600
G0 X173.515 Y114.039 F7200
G1 X160.839 Y101.364 E32.69489 F3600
G0 X160.839 Y100.798 F7200
G1 X174.081 Y114.039 E33.31772 F3600
G0 X174.646 Y114.039 F7200
G1 X160.839 Y100.232 E33.96715 F3600
G0 X160.839 Y99.667 F7200
G1 X175.212 Y114.039 E34.64318 F3600
G0 X175.778 Y114.039 F7200
G1 X160.839 Y99.101 E35.34583 F3600
G0 X160.839 Y98.535 F7200
G1 X176.343 Y114.039 E36.07508 F3600
G0 X176.909 Y114.039 F7200
G1 X160.839 Y97.970 E36.83094 F3600
G0 X160.839 Y97.404 F7200
G1 X177.475 Y114.039 E37.61341 F3600
G0 X178.040 Y114.039 F7200
G1 X160.839 Y96.838 E38.42249 F3600
G0 X160.839 Y96.273 F7200
G1 X178.606 Y114.039 E39.25817 F3600
G0 X179.172 Y114.039 F7200
G1 X160.839 Y95.707 E40.12047 F3600
G0 X160.839 Y95.141 F7200
G1 X179.737 Y114.039 E41.00937 F3600
G0 X180.303 Y114.039 F7200
G1 X160.839 Y94.576 E41.92488 F3600
G0 X160.839 Y94.010 F7200
G1 X180.869 Y114.039 E42.86700 F3600
G0 X181.434 Y114.039 F7200
G1 X160.839 Y93.444 E43.83573 F3600
G0 X160.839 Y92.879 F7200
G1 X182.000 Y114.039 E44.83106 F3600
G0 X182.566 Y114.039 F7200
G1 X160.839 Y92.313 E45.85300 F3600
G0 X160.839 Y91.747 F7200
G1 X183.132 Y114.039 E46.90156 F3600
G0 X183.697 Y114.039 F7200
G1 X160.839 Y91.182 E47.97672 F3600
G0 X160.839 Y90.616 F7200
G1 X184.263 Y114.039 E49.07849 F3600
G0 X184.829 Y114.039 F7200
G1 X160.839 Y90.050 E50.20686 F3600
G0 X160.839 Y89.484 F7200
G1 X185.394 Y114.039 E51.36185 F3600
G0 X185.960 Y114.039 F7200
G1 X160.839 Y88.919 E52.54344 F3600
G0 X160.839 Y88.353 F7200
G1 X186.526 Y114.039 E53.75164 F3600
G0 X187.091 Y114.039 F7200
G1 X160.839 Y87.787 E54.98645 F3600
G0 X160.839 Y87.222 F7200
G1 X187.657 Y114.039 E56.24787 F3600
G0 X188.223 Y114.039 F7200
G1 X160.839 Y86.656 E57.53589 F3600
G0 X160.839 Y86.090 F7200
G1 X188.788 Y114.039 E58.85052 F3600
G0 X189.354 Y114.039 F7200
G1 X161.275 Y85.960 E60.17127 F3600
G0 X161.841 Y85.960 F7200
G1 X189.920 Y114.039 E61.49203 F3600
G0 X190.485 Y114.039 F7200
G1 X162.406 Y85.960 E62.81278 F3600
G0 X162.972 Y85.960 F7200
G1 X191.051 Y114.039 E64.13352 F3600
G0 X191.617 Y114.039 F7200
G1 X163.538 Y85.960 E65.45427 F3600
G0 X164.103 Y85.960 F7200
G1 X192.183 Y114.039 E66.77502 F3600
G0 X192.748 Y114.039 F7200
G1 X164.669 Y85.960 E68.09577 F3600
G0 X165.235 Y85.960 F7200
G1 X193.314 Y114.039 E69.41651 F3600
G0 X193.880 Y114.039 F7200
G1 X165.801 Y85.960 E70.73726 F3600
G0 X166.366 Y85.960 F7200
G1 X194.445 Y114.039 E72.05801 F3600
G0 X195.011 Y114.039 F7200
G1 X166.932 Y85.960 E73.37876 F3600
G0 X167.498 Y85.960 F7200
G1 X195.577 Y114.039 E74.69950 F3600
G0 X196.142 Y114.039 F7200
G1 X168.063 Y85.960 E76.02025 F3600
G0 X168.629 Y85.960 F7200
G1 X196.708 Y114.039 E77.34100 F3600
G0 X197.274 Y114.039 F7200
G1 X169.195 Y85.960 E78.66175 F3600
G0 X169.760 Y85.960 F7200
G1 X197.839 Y114.039 E79.98249 F3600
G0 X198.405 Y114.039 F7200
G1 X170.326 Y85.960 E81.30324 F3600
G0 X170.892 Y85.960 F7200
G1 X198.971 Y114.039 E82.62399 F3600
G0 X199.536 Y114.039 F7200
G1 X171.457 Y85.960 E83.94473 F3600
G0 X172.023 Y85.960 F7200
G1 X200.102 Y114.039 E85.26548 F3600
G0 X200.668 Y114.039 F7200
G1 X172.589 Y85.960 E86.58623 F3600
G0 X173.154 Y85.960 F7200
G1 X201.233 Y114.039 E87.90697 F3600
G0 X201.799 Y114.039 F7200
G1 X173.720 Y85.960 E89.22772 F3600
G0 X174.286 Y85.960 F7200
G1 X202.365 Y114.039 E90.54847 F3600
G0 X202.931 Y114.039 F7200
G1 X174.852 Y85.960 E91.86922 F3600
G0 X175.417 Y85.960 F7200
G1 X203.496 Y114.039 E93.18996 F3600
G0 X204.062 Y114.039 F7200
G1 X175.983 Y85.960 E94.51071 F3600
G0 X176.549 Y85.960 F7200
G1 X204.628 Y114.039 E95.83147 F3600
G0 X205.193 Y114.039 F7200
G1 X177.114 Y85.960 E97.15221 F3600
G0 X177.680 Y85.960 F7200
G1 X205.759 Y114.039 E98.47296 F3600
G0 X206.325 Y114.039 F7200
G1 X178.246 Y85.960 E99.79371 F3600
G0 X178.811 Y85.960 F7200
G1 X206.890 Y114.039 E101.11446 F3600
G0 X207.456 Y114.039 F7200
G1 X179.377 Y85.960 E102.43520 F3600
G0 X179.943 Y85.960 F7200
G1 X208.022 Y114.039 E103.75595 F3600
G0 X208.587 Y114.039 F7200
G1 X180.508 Y85.960 E105.07670 F3600
G0 X181.074 Y85.960 F7200
G1 X209.153 Y114.039 E106.39745 F3600
G0 X209.719 Y114.039 F7200
G1 X181.640 Y85.960 E107.71819 F3600
G0 X182.205 Y85.960 F7200
G1 X210.284 Y114.039 E109.03894 F3600
G0 X210.850 Y114.039 F7200
G1 X182.771 Y85.960 E110.35969 F3600
G0 X183.337 Y85.960 F7200
G1 X211.416 Y114.039 E111.68044 F3600
G0 X211.982 Y114.039 F7200
G1 X183.903 Y85.960 E113.00118 F3600
G0 X184.468 Y85.960 F7200
G1 X212.547 Y114.039 E114.32193 F3600
G0 X213.113 Y114.039 F7200
G1 X185.034 Y85.960 E115.64268 F3600
G0 X185.600 Y85.960 F7200
G1 X213.679 Y114.039 E116.96342 F3600
G0 X214.244 Y114.039 F7200
G1 X186.165 Y85.960 E118.28417 F3600
G0 X186.731 Y85.960 F7200
G1 X214.810 Y114.039 E119.60492 F3600
G0 X215.376 Y114.039 F7200
G1 X187.297 Y85.960 E120.92567 F3600
G0 X187.862 Y85.960 F7200
G1 X215.941 Y114.039 E122.24641 F3600
G0 X216.507 Y114.039 F7200
G1 X188.428 Y85.960 E123.56716 F3600
G0 X188.994 Y85.960 F7200
G1 X217.073 Y114.039 E124.88791 F3600
G0 X217.638 Y114.039 F7200
G1 X189.559 Y85.960 E126.20866 F3600
G0 X190.125 Y85.960 F7200
G1 X218.204 Y114.039 E127.52940 F3600
G0 X218.770 Y114.039 F7200
G1 X190.691 Y85.960 E128.85016 F3600
G0 X191.256 Y85.960 F7200
G1 X219.335 Y114.039 E130.17091 F3600
G0 X219.901 Y114.039 F7200
G1 X191.822 Y85.960 E131.49167 F3600
G0 X192.388 Y85.960 F7200
G1 X220.467 Y114.039 E132.81242 F3600
G0 X221.033 Y114.039 F7200
G1 X192.953 Y85.960 E134.13318 F3600
G0 X193.519 Y85.960 F7200
G1 X221.598 Y114.039 E135.45393 F3600
G0 X222.164 Y114.039 F7200
G1 X194.085 Y85.960 E136.77469 F3600
G0 X194.651 Y85.960 F7200
G1 X222.730 Y114.039 E138.09544 F3600
G0 X223.295 Y114.039 F7200
G1 X195.216 Y85.960 E139.41620 F3600
G0 X195.782 Y85.960 F7200
G1 X223.861 Y114.039 E140.73695 F3600
G0 X224.427 Y114.039 F7200
G1 X196.348 Y85.960 E142.05771 F3600
G0 X196.913 Y85.960 F7200
G1 X224.992 Y114.039 E143.37846 F3600
G0 X225.558 Y114.039 F7200
G1 X197.479 Y85.960 E144.69922 F3600
G0 X198.045 Y85.960 F7200
G1 X226.124 Y114.039 E146.01997 F3600
G0 X226.689 Y114.039 F7200
G1 X198.610 Y85.960 E147.34073 F3600
G0 X199.176 Y85.960 F7200
G1 X227.255 Y114.039 E148.66148 F3600
G0 X227.821 Y114.039 F7200
G1 X199.742 Y85.960 E149.98224 F3600
G0 X200.307 Y85.960 F7200
G1 X228.386 Y114.039 E151.30299 F3600
G0 X228.952 Y114.039 F7200
G1 X200.873 Y85.960 E152.62375 F3600
G0 X201.439 Y85.960 F7200
G1 X229.518 Y114.039 E153.94450 F3600
G0 X230.084 Y114.039 F7200
G1 X202.004 Y85.960 E155.26526 F3600
G0 X202.570 Y85.960 F7200
G1 X230.649 Y114.039 E156.58601 F3600
G0 X231.215 Y114.039 F7200
G1 X203.136 Y85.960 E157.90677 F3600
G0 X203.702 Y85.960 F7200
G1 X231.781 Y114.039 E159.22752 F3600
G0 X232.346 Y114.039 F7200
G1 X204.267 Y85.960 E160.54828 F3600
G0 X204.833 Y85.960 F7200
G1 X232.912 Y114.039 E161.86903 F3600
G0 X233.478 Y114.039 F7200
G1 X205.399 Y85.960 E163.18979 F3600
G0 X205.964 Y85.960 F7200
G1 X234.043 Y114.039 E164.51054 F3600
G0 X234.609 Y114.039 F7200
G1 X206.530 Y85.960 E165.83130 F3600
G0 X207.096 Y85.960 F7200
G1 X235.175 Y114.039 E167.15205 F3600
G0 X235.740 Y114.039 F7200
G1 X207.661 Y85.960 E168.47280 F3600
G0 X208.227 Y85.960 F7200
G1 X236.306 Y114.039 E169.79356 F3600
G0 X236.872 Y114.039 F7200
G1 X208.793 Y85.960 E171.11432 F3600
G0 X209.358 Y85.960 F7200
G1 X237.437 Y114.039 E172.43508 F3600
G0 X238.003 Y114.039 F7200
G1 X209.924 Y85.960 E173.75582 F3600
G0 X210.490 Y85.960 F7200
G1 X238.569 Y114.039 E175.07658 F3600
G0 X239.134 Y114.039 F7200
G1 X211.055 Y85.960 E176.39734 F3600
G0 X211.621 Y85.960 F7200
G1 X239.700 Y114.039 E177.71810 F3600
G0 X239.918 Y113.692 F7200
G1 X212.187 Y85.960 E179.02250 F3600
G0 X212.753 Y85.960 F7200
G1 X239.918 Y113.126 E180.30030 F3600
G0 X239.918 Y112.561 F7200
G1 X213.318 Y85.960 E181.55150 F3600
G0 X213.884 Y85.960 F7200
G1 X239.918 Y111.995 E182.77608 F3600
G0 X239.918 Y111.429 F7200
G1 X214.450 Y85.960 E183.97406 F3600
G0 X215.015 Y85.960 F7200
G1 X239.918 Y110.864 E185.14544 F3600
G0 X239.918 Y110.298 F7200
G1 X215.581 Y85.960 E186.29020 F3600
G0 X216.147 Y85.960 F7200
G1 X239.918 Y109.732 E187.40834 F3600
G0 X239.918 Y109.166 F7200
G1 X216.712 Y85.960 E188.49988 F3600
G0 X217.278 Y85.960 F7200
G1 X239.918 Y108.601 E189.56482 F3600
G0 X239.918 Y108.035 F7200
G1 X217.844 Y85.960 E190.60314 F3600
G0 X218.409 Y85.960 F7200
G1 X239.918 Y107.469 E191.61486 F3600
G0 X239.918 Y106.904 F7200
G1 X218.975 Y85.960 E192.59998 F3600
G0 X219.541 Y85.960 F7200
G1 X239.918 Y106.338 E193.55848 F3600
G0 X239.918 Y105.772 F7200
G1 X220.106 Y85.960 E194.49038 F3600
G0 X220.672 Y85.960 F7200
G1 X239.918 Y105.207 E195.39566 F3600
G0 X239.918 Y104.641 F7200
G1 X221.238 Y85.960 E196.27434 F3600
G0 X221.804 Y85.960 F7200
G1 X239.918 Y104.075 E197.12640 F3600
G0 X239.918 Y103.510 F7200
G1 X222.369 Y85.960 E197.95186 F3600
G0 X222.935 Y85.960 F7200
G1 X239.918 Y102.944 E198.75072 F3600
G0 X239.918 Y102.378 F7200
G1 X223.501 Y85.960 E199.52296 F3600
G0 X224.066 Y85.960 F7200
G1 X239.918 Y101.813 E200.26860 F3600
G0 X239.918 Y101.247 F7200
G1 X224.632 Y85.960 E200.98762 F3600
G0 X225.198 Y85.960 F7200
G1 X239.918 Y100.681 E201.68004 F3600
G0 X239.918 Y100.115 F7200
G1 X225.763 Y85.960 E202.34586 F3600
G0 X226.329 Y85.960 F7200
G1 X239.918 Y99.550 E202.98506 F3600
G0 X239.918 Y98.984 F7200
G1 X226.895 Y85.960 E203.59766 F3600
G0 X227.460 Y85.960 F7200
G1 X239.918 Y98.418 E204.18364 F3600
G0 X239.918 Y97.853 F7200
G1 X228.026 Y85.960 E204.74302 F3600
G0 X228.592 Y85.960 F7200
G1 X239.918 Y97.287 E205.27578 F3600
G0 X239.918 Y96.721 F7200
G1 X229.157 Y85.960 E205.78196 F3600
G0 X229.723 Y85.960 F7200
G1 X239.918 Y96.156 E206.26150 F3600
G0 X239.918 Y95.590 F7200
G1 X230.289 Y85.960 E206.71444 F3600
G0 X230.855 Y85.960 F7200
G1 X239.918 Y95.024 E207.14078 F3600
G0 X239.918 Y94.459 F7200
G1 X231.420 Y85.960 E207.54052 F3600
G0 X231.986 Y85.960 F7200
G1 X239.918 Y93.893 E207.91364 F3600
G0 X239.918 Y93.327 F7200
G1 X232.552 Y85.960 E208.26014 F3600
G0 X233.117 Y85.960 F7200
G1 X239.918 Y92.762 E208.58004 F3600
G0 X239.918 Y92.196 F7200
G1 X233.683 Y85.960 E208.87334 F3600
G0 X234.249 Y85.960 F7200
G1 X239.918 Y91.630 E209.14002 F3600
G0 X239.918 Y91.065 F7200
G1 X234.814 Y85.960 E209.38012 F3600
G0 X235.380 Y85.960 F7200
G1 X239.918 Y90.499 E209.59358 F3600
G0 X239.918 Y89.933 F7200
G1 X235.946 Y85.960 E209.78044 F3600
G0 X236.511 Y85.960 F7200
G1 X239.918 Y89.367 E209.94070 F3600
G0 X239.918 Y88.802 F7200
G1 X237.077 Y85.960 E210.07436 F3600
G0 X237.643 Y85.960 F7200
G1 X239.918 Y88.236 E210.18140 F3600
G0 X239.918 Y87.670 F7200
G1 X238.208 Y85.960 E210.26182 F3600
G0 X238.774 Y85.960 F7200
G1 X239.918 Y87.105 E210.31564 F3600
G0 X239.918 Y86.539 F7200
G1 X239.340 Y85.960 E210.34286 F3600
G0 X239.905 Y85.960 F7200
G1 X239.918 Y85.973 E210.34348 F3600
G0 X161.635 Y114.039 F7200
G1 X158.557 Y110.961 E210.48828 F3600
G0 X157.991 Y110.961 F7200
G1 X161.070 Y114.039 E210.63308 F3600
G0 X160.504 Y114.039 F7200
G1 X157.425 Y110.961 E210.77790 F3600
G0 X156.860 Y110.961 F7200
G1 X159.938 Y114.039 E210.92270 F3600
G0 X159.373 Y114.039 F7200
G1 X156.294 Y110.961 E211.06750 F3600
G0 X155.728 Y110.961 F7200
G1 X158.807 Y114.039 E211.21232 F3600
G0 X158.241 Y114.039 F7200
G1 X155.163 Y110.961 E211.35712 F3600
G0 X154.597 Y110.961 F7200
G1 X157.676 Y114.039 E211.50192 F3600
G0 X157.110 Y114.039 F7200
G1 X154.031 Y110.961 E211.64672 F3600
G0 X153.466 Y110.961 F7200
G1 X156.544 Y114.039 E211.79154 F3600
G0 X155.979 Y114.039 F7200
G1 X152.900 Y110.961 E211.93634 F3600
G0 X152.334 Y110.961 F7200
G1 X155.413 Y114.039 E212.08114 F3600
G0 X154.847 Y114.039 F7200
G1 X151.769 Y110.961 E212.22596 F3600
G0 X151.203 Y110.961 F7200
G1 X154.282 Y114.039 E212.37076 F3600
G0 X153.716 Y114.039 F7200
G1 X150.637 Y110.961 E212.51556 F3600
G0 X150.072 Y110.961 F7200
G1 X153.150 Y114.039 E212.66036 F3600
G0 X152.584 Y114.039 F7200
G1 X149.506 Y110.961 E212.80518 F3600
G0 X148.940 Y110.961 F7200
G1 X152.019 Y114.039 E212.94998 F3600
G0 X151.453 Y114.039 F7200
G1 X148.374 Y110.961 E213.09478 F3600
G0 X147.809 Y110.961 F7200
G1 X150.887 Y114.039 E213.23960 F3600
G0 X150.322 Y114.039 F7200
G1 X147.243 Y110.961 E213.38440 F3600
G0 X146.677 Y110.961 F7200
G1 X149.756 Y114.039 E213.52920 F3600
G0 X149.190 Y114.039 F7200
G1 X146.112 Y110.961 E213.67402 F3600
G0 X145.546 Y110.961 F7200
G1 X148.625 Y114.039 E213.81882 F3600
G0 X148.059 Y114.039 F7200
G1 X144.980 Y110.961 E213.96362 F3600
G0 X144.415 Y110.961 F7200
G1 X147.493 Y114.039 E214.10842 F3600
G0 X146.928 Y114.039 F7200
G1 X143.849 Y110.961 E214.25324 F3600
G0 X143.283 Y110.961 F7200
G1 X146.362 Y114.039 E214.39804 F3600
G0 X145.796 Y114.039 F7200
G1 X142.718 Y110.961 E214.54284 F3600
G0 X142.152 Y110.961 F7200
G1 X145.231 Y114.039 E214.68766 F3600
G0 X144.665 Y114.039 F7200
G1 X141.586 Y110.961 E214.83246 F3600
G0 X141.021 Y110.961 F7200
G1 X144.099 Y114.039 E214.97726 F3600
G0 X143.533 Y114.039 F7200
G1 X140.455 Y110.961 E215.12208 F3600
G0 X139.889 Y110.961 F7200
G1 X142.968 Y114.039 E215.26688 F3600
G0 X142.402 Y114.039 F7200
G1 X139.323 Y110.961 E215.41168 F3600
G0 X138.758 Y110.961 F7200
G1 X141.836 Y114.039 E215.55648 F3600
G0 X141.271 Y114.039 F7200
G1 X138.192 Y110.961 E215.70130 F3600
G0 X137.626 Y110.961 F7200
G1 X140.705 Y114.039 E215.84610 F3600
G0 X140.139 Y114.039 F7200
G1 X137.061 Y110.961 E215.99090 F3600
G0 X136.495 Y110.961 F7200
G1 X139.574 Y114.039 E216.13572 F3600
G0 X139.008 Y114.039 F7200
G1 X135.929 Y110.961 E216.28052 F3600
G0 X135.364 Y110.961 F7200
G1 X138.442 Y114.039 E216.42532 F3600
G0 X137.877 Y114.039 F7200
G1 X134.798 Y110.961 E216.57012 F3600
G0 X134.232 Y110.961 F7200
G1 X137.311 Y114.039 E216.71494 F3600
G0 X136.745 Y114.039 F7200
G1 X133.667 Y110.961 E216.85974 F3600
G0 X133.101 Y110.961 F7200
G1 X136.180 Y114.039 E217.00454 F3600
G0 X135.614 Y114.039 F7200
G1 X132.535 Y110.961 E217.14936 F3600
G0 X131.970 Y110.961 F7200
G1 X135.048 Y114.039 E217.29416 F3600
G0 X134.482 Y114.039 F7200
G1 X131.404 Y110.961 E217.43896 F3600
G0 X130.838 Y110.961 F7200
G1 X133.917 Y114.039 E217.58378 F3600
G0 X133.351 Y114.039 F7200
G1 X130.272 Y110.961 E217.72858 F3600
G0 X129.707 Y110.961 F7200
G1 X132.785 Y114.039 E217.87338 F3600
G0 X132.220 Y114.039 F7200
G1 X129.141 Y110.961 E218.01818 F3600
G0 X128.575 Y110.961 F7200
G1 X131.654 Y114.039 E218.16300 F3600
G0 X131.088 Y114.039 F7200
G1 X128.010 Y110.961 E218.30780 F3600
G0 X127.444 Y110.961 F7200
G1 X130.523 Y114.039 E218.45260 F3600
G0 X129.957 Y114.039 F7200
G1 X126.878 Y110.961 E218.59742 F3600
G0 X126.313 Y110.961 F7200
G1 X129.391 Y114.039 E218.74222 F3600
G0 X128.826 Y114.039 F7200
G1 X125.747 Y110.961 E218.88702 F3600
G0 X125.181 Y110.961 F7200
G1 X128.260 Y114.039 E219.03182 F3600
G0 X127.694 Y114.039 F7200
G1 X124.616 Y110.961 E219.17664 F3600
G0 X124.050 Y110.961 F7200
G1 X127.129 Y114.039 E219.32144 F3600
G0 X126.563 Y114.039 F7200
G1 X123.484 Y110.961 E219.46624 F3600
G0 X122.919 Y110.961 F7200
G1 X125.997 Y114.039 E219.61106 F3600
G0 X125.431 Y114.039 F7200
G1 X122.353 Y110.961 E219.75586 F3600
G0 X121.787 Y110.961 F7200
G1 X124.866 Y114.039 E219.90066 F3600
G0 X124.300 Y114.039 F7200
G1 X121.222 Y110.961 E220.04548 F3600
G0 X120.656 Y110.961 F7200
G1 X123.734 Y114.039 E220.19028 F3600
G0 X123.169 Y114.039 F7200
G1 X120.090 Y110.961 E220.33508 F3600
G0 X119.524 Y110.961 F7200
G1 X122.603 Y114.039 E220.47988 F3600
G0 X122.037 Y114.039 F7200
G1 X118.959 Y110.961 E220.62470 F3600
G0 X118.393 Y110.961 F7200
G1 X121.472 Y114.039 E220.76950 F3600
G0 X120.906 Y114.039 F7200
G1 X117.827 Y110.961 E220.91430 F3600
G0 X117.262 Y110.961 F7200
G1 X120.340 Y114.039 E221.05912 F3600
G0 X119.775 Y114.039 F7200
G1 X116.696 Y110.961 E221.20392 F3600
G0 X116.130 Y110.961 F7200
G1 X119.209 Y114.039 E221.34872 F3600
G0 X118.643 Y114.039 F7200
G1 X115.565 Y110.961 E221.49354 F3600
G0 X114.999 Y110.961 F7200
G1 X118.078 Y114.039 E221.63834 F3600
G0 X117.512 Y114.039 F7200
G1 X114.433 Y110.961 E221.78314 F3600
G0 X113.868 Y110.961 F7200
G1 X116.946 Y114.039 E221.92794 F3600
G0 X116.381 Y114.039 F7200
G1 X113.302 Y110.961 E222.07276 F3600
G0 X112.736 Y110.961 F7200
G1 X115.815 Y114.039 E222.21756 F3600
G0 X115.249 Y114.039 F7200
G1 X112.171 Y110.961 E222.36236 F3600
G0 X111.605 Y110.961 F7200
G1 X114.683 Y114.039 E222.50718 F3600
G0 X114.118 Y114.039 F7200
G1 X111.039 Y110.961 E222.65198 F3600
G0 X110.840 Y111.327 F7200
G1 X113.552 Y114.039 E222.77958 F3600
G0 X112.986 Y114.039 F7200
G1 X110.840 Y111.892 E222.88056 F3600
G0 X110.840 Y112.458 F7200
G1 X112.421 Y114.039 E222.95492 F3600
G0 X111.855 Y114.039 F7200
G1 X110.840 Y113.024 E223.00268 F3600
G0 X110.840 Y113.589 F7200
G1 X111.289 Y114.039 E223.02384 F3600
; ------------------------------------
; Layer #3
; ------------------------------------
M106 S255 ;set fan speed
G92 E0 ;reset extr
G0 F3000 E-1.00000
G0 F600 Z0.800
G0 X111.596 Y114.400 F7200
G0 X110.479 Y113.087
G0 X110.479 Y110.601
G0 X109.300 Y111.700
G0 F3000 E0.00000
;segType:Support
G1 X71.500 Y111.700 E1.06865 F3600
G1 X71.500 Y109.900 E1.11954
G1 X109.300 Y109.900 E2.18818
G0 X109.300 Y115.300 F7200
G1 X71.500 Y115.300 E3.25683 F3600
G1 X71.500 Y113.500 E3.30772
G1 X109.300 Y113.500 E4.37637
G0 F3000 E3.37637
G0 X110.479 Y113.077 F7200
G0 X117.385 Y110.601
G0 X160.479 Y110.601
G0 X160.479 Y95.146
G0 X186.094 Y85.961
G0 F3000 E4.37637
;segType:HShell
G1 X158.015 Y114.040 E5.69712 F3600
G0 X157.449 Y114.040 F7200
G1 X160.528 Y110.961 E5.84194 F3600
G0 X160.079 Y110.941 F7200
;segType:Perimeter
G1 X160.079 Y110.141 E5.86855 F2160
G1 X160.079 Y85.200 E6.69806
G1 X240.679 Y85.200 E9.37881
G1 X240.679 Y114.800 E10.36328
G1 X110.079 Y114.800 E14.70702
G1 X110.079 Y110.201 E14.85999
G1 X160.019 Y110.201 E16.52099
G0 X159.852 Y110.601 F7200
G0 X160.479 Y110.601
G0 X160.479 Y109.101
G0 X160.479 Y109.101
;segType:Loop
G1 X160.479 Y85.600 E17.30261 F3600
G1 X240.279 Y85.600 E19.95675
G1 X240.279 Y114.400 E20.91461
G1 X110.479 Y114.400 E25.23175
G1 X110.479 Y110.601 E25.35810
G1 X160.479 Y110.601 E27.02111
G1 X160.479 Y109.301 E27.06435
G0 X159.962 Y110.961 F7200
;segType:HShell
G1 X156.883 Y114.040 E27.20917 F3600
G0 X156.318 Y114.040 F7200
G1 X159.397 Y110.961 E27.35399 F3600
G0 X158.831 Y110.961 F7200
G1 X155.752 Y114.040 E27.49881 F3600
G0 X155.186 Y114.040 F7200
G1 X158.265 Y110.961 E27.64364 F3600
G0 X157.700 Y110.961 F7200
G1 X154.621 Y114.040 E27.78846 F3600
G0 X154.055 Y114.040 F7200
G1 X157.134 Y110.961 E27.93328 F3600
G0 X156.568 Y110.961 F7200
G1 X153.489 Y114.040 E28.07811 F3600
G0 X152.924 Y114.040 F7200
G1 X156.002 Y110.961 E28.22293 F3600
G0 X155.437 Y110.961 F7200
G1 X152.358 Y114.040 E28.36775 F3600
G0 X151.792 Y114.040 F7200
G1 X154.871 Y110.961 E28.51258 F3600
G0 X154.305 Y110.961 F7200
G1 X151.226 Y114.040 E28.65740 F3600
G0 X150.661 Y114.040 F7200
G1 X153.740 Y110.961 E28.80222 F3600
G0 X153.174 Y110.961 F7200
G1 X150.095 Y114.040 E28.94705 F3600
G0 X149.529 Y114.040 F7200
G1 X152.608 Y110.961 E29.09187 F3600
G0 X152.043 Y110.961 F7200
G1 X148.964 Y114.040 E29.23669 F3600
G0 X148.398 Y114.040 F7200
G1 X151.477 Y110.961 E29.38151 F3600
G0 X150.911 Y110.961 F7200
G1 X147.832 Y114.040 E29.52634 F3600
G0 X147.267 Y114.040 F7200
G1 X150.346 Y110.961 E29.67116 F3600
G0 X149.780 Y110.961 F7200
G1 X146.701 Y114.040 E29.81598 F3600
G0 X146.135 Y114.040 F7200
G1 X149.214 Y110.961 E29.96081 F3600
G0 X148.649 Y110.961 F7200
G1 X145.570 Y114.040 E30.10563 F3600
G0 X145.004 Y114.040 F7200
G1 X148.083 Y110.961 E30.25045 F3600
G0 X147.517 Y110.961 F7200
G1 X144.438 Y114.040 E30.39528 F3600
G0 X143.873 Y114.040 F7200
G1 X146.951 Y110.961 E30.54010 F3600
G0 X146.386 Y110.961 F7200
G1 X143.307 Y114.040 E30.68492 F3600
G0 X142.741 Y114.040 F7200
G1 X145.820 Y110.961 E30.82975 F3600
G0 X145.254 Y110.961 F7200
G1 X142.176 Y114.040 E30.97457 F3600
G0 X141.610 Y114.040 F7200
G1 X144.689 Y110.961 E31.11939 F3600
G0 X144.123 Y110.961 F7200
G1 X141.044 Y114.040 E31.26421 F3600
G0 X140.478 Y114.040 F7200
G1 X143.557 Y110.961 E31.40904 F3600
G0 X142.992 Y110.961 F7200
G1 X139.913 Y114.040 E31.55386 F3600
G0 X139.347 Y114.040 F7200
G1 X142.426 Y110.961 E31.69868 F3600
G0 X141.860 Y110.961 F7200
G1 X138.781 Y114.040 E31.84351 F3600
G0 X138.216 Y114.040 F7200
G1 X141.295 Y110.961 E31.98833 F3600
G0 X140.729 Y110.961 F7200
G1 X137.650 Y114.040 E32.13315 F3600
G0 X137.084 Y114.040 F7200
G1 X140.163 Y110.961 E32.27797 F3600
G0 X139.598 Y110.961 F7200
G1 X136.519 Y114.040 E32.42280 F3600
G0 X135.953 Y114.040 F7200
G1 X139.032 Y110.961 E32.56762 F3600
G0 X138.466 Y110.961 F7200
G1 X135.387 Y114.040 E32.71244 F3600
G0 X134.822 Y114.040 F7200
G1 X137.900 Y110.961 E32.85726 F3600
G0 X137.335 Y110.961 F7200
G1 X134.256 Y114.040 E33.00208 F3600
G0 X133.690 Y114.040 F7200
G1 X136.769 Y110.961 E33.14690 F3600
G0 X136.203 Y110.961 F7200
G1 X133.125 Y114.040 E33.29172 F3600
G0 X132.559 Y114.040 F7200
G1 X135.638 Y110.961 E33.43654 F3600
G0 X135.072 Y110.961 F7200
G1 X131.993 Y114.040 E33.58136 F3600
G0 X131.427 Y114.040 F7200
G1 X134.506 Y110.961 E33.72619 F3600
G0 X133.941 Y110.961 F7200
G1 X130.862 Y114.040 E33.87101 F3600
G0 X130.296 Y114.040 F7200
G1 X133.375 Y110.961 E34.01583 F3600
G0 X132.809 Y110.961 F7200
G1 X129.730 Y114.040 E34.16065 F3600
G0 X129.165 Y114.040 F7200
G1 X132.244 Y110.961 E34.30547 F3600
G0 X131.678 Y110.961 F7200
G1 X128.599 Y114.040 E34.45029 F3600
G0 X128.033 Y114.040 F7200
G1 X131.112 Y110.961 E34.59511 F3600
G0 X130.547 Y110.961 F7200
G1 X127.468 Y114.040 E34.73993 F3600
G0 X126.902 Y114.040 F7200
G1 X129.981 Y110.961 E34.88476 F3600
G0 X129.415 Y110.961 F7200
G1 X126.336 Y114.040 E35.02958 F3600
G0 X125.771 Y114.040 F7200
G1 X128.850 Y110.961 E35.17440 F3600
G0 X128.284 Y110.961 F7200
G1 X125.205 Y114.040 E35.31922 F3600
G0 X124.639 Y114.040 F7200
G1 X127.718 Y110.961 E35.46404 F3600
G0 X127.152 Y110.961 F7200
G1 X124.074 Y114.040 E35.60886 F3600
G0 X123.508 Y114.040 F7200
G1 X126.587 Y110.961 E35.75368 F3600
G0 X126.021 Y110.961 F7200
G1 X122.942 Y114.040 E35.89850 F3600
G0 X122.376 Y114.040 F7200
G1 X125.455 Y110.961 E36.04332 F3600
G0 X124.890 Y110.961 F7200
G1 X121.811 Y114.040 E36.18815 F3600
G0 X121.245 Y114.040 F7200
G1 X124.324 Y110.961 E36.33297 F3600
G0 X123.758 Y110.961 F7200
G1 X120.679 Y114.040 E36.47779 F3600
G0 X120.114 Y114.040 F7200
G1 X123.193 Y110.961 E36.62261 F3600
G0 X122.627 Y110.961 F7200
G1 X119.548 Y114.040 E36.76743 F3600
G0 X118.982 Y114.040 F7200
G1 X122.061 Y110.961 E36.91225 F3600
G0 X121.496 Y110.961 F7200
G1 X118.417 Y114.040 E37.05707 F3600
G0 X117.851 Y114.040 F7200
G1 X120.930 Y110.961 E37.20189 F3600
G0 X120.364 Y110.961 F7200
G1 X117.285 Y114.040 E37.34672 F3600
G0 X116.720 Y114.040 F7200
G1 X119.799 Y110.961 E37.49154 F3600
G0 X119.233 Y110.961 F7200
G1 X116.154 Y114.040 E37.63636 F3600
G0 X115.588 Y114.040 F7200
G1 X118.667 Y110.961 E37.78118 F3600
G0 X118.101 Y110.961 F7200
G1 X115.023 Y114.040 E37.92600 F3600
G0 X114.457 Y114.040 F7200
G1 X117.536 Y110.961 E38.07082 F3600
G0 X116.970 Y110.961 F7200
G1 X113.891 Y114.040 E38.21564 F3600
G0 X113.325 Y114.040 F7200
G1 X116.404 Y110.961 E38.36046 F3600
G0 X115.839 Y110.961 F7200
G1 X112.760 Y114.040 E38.50528 F3600
G0 X112.194 Y114.040 F7200
G1 X115.273 Y110.961 E38.65011 F3600
G0 X114.707 Y110.961 F7200
G1 X111.628 Y114.040 E38.79493 F3600
G0 X111.063 Y114.040 F7200
G1 X114.142 Y110.961 E38.93975 F3600
G0 X113.576 Y110.961 F7200
G1 X110.840 Y113.697 E39.06846 F3600
G0 X110.840 Y113.132 F7200
G1 X113.010 Y110.961 E39.17057 F3600
G0 X112.445 Y110.961 F7200
G1 X110.840 Y112.566 E39.24607 F3600
G0 X110.840 Y112.000 F7200
G1 X111.879 Y110.961 E39.29496 F3600
G0 X111.313 Y110.961 F7200
G1 X110.840 Y111.434 E39.31724 F3600
G0 F3000 E38.31724
G0 X110.479 Y111.617 F7200
G0 X112.488 Y110.601
G0 X160.479 Y110.601
G0 X160.479 Y86.327
G0 X161.916 Y85.600
G0 X161.204 Y85.961
G0 F3000 E39.31724
G1 X160.839 Y86.325 E39.33436 F3600
G0 X160.839 Y86.890 F7200
G1 X161.769 Y85.961 E39.37809 F3600
G0 X162.335 Y85.961 F7200
G1 X160.839 Y87.456 E39.44843 F3600
G0 X160.839 Y88.022 F7200
G1 X162.901 Y85.961 E39.54538 F3600
G0 X163.466 Y85.961 F7200
G1 X160.839 Y88.587 E39.66894 F3600
G0 X160.839 Y89.153 F7200
G1 X164.032 Y85.961 E39.81911 F3600
G0 X164.598 Y85.961 F7200
G1 X160.839 Y89.719 E39.99588 F3600
G0 X160.839 Y90.284 F7200
G1 X165.163 Y85.961 E40.19926 F3600
G0 X165.729 Y85.961 F7200
G1 X160.839 Y90.850 E40.42925 F3600
G0 X160.839 Y91.416 F7200
G1 X166.295 Y85.961 E40.68585 F3600
G0 X166.860 Y85.961 F7200
G1 X160.839 Y91.982 E40.96905 F3600
G0 X160.839 Y92.547 F7200
G1 X167.426 Y85.961 E41.27887 F3600
G0 X167.992 Y85.961 F7200
G1 X160.839 Y93.113 E41.61529 F3600
G0 X160.839 Y93.679 F7200
G1 X168.557 Y85.961 E41.97832 F3600
G0 X169.123 Y85.961 F7200
G1 X160.839 Y94.244 E42.36796 F3600
G0 X160.839 Y94.810 F7200
G1 X169.689 Y85.961 E42.78421 F3600
G0 X170.254 Y85.961 F7200
G1 X160.839 Y95.376 E43.22706 F3600
G0 X160.839 Y95.941 F7200
G1 X170.820 Y85.961 E43.69653 F3600
G0 X171.386 Y85.961 F7200
G1 X160.839 Y96.507 E44.19260 F3600
G0 X160.839 Y97.073 F7200
G1 X171.952 Y85.961 E44.71528 F3600
G0 X172.517 Y85.961 F7200
G1 X160.839 Y97.638 E45.26457 F3600
G0 X160.839 Y98.204 F7200
G1 X173.083 Y85.961 E45.84047 F3600
G0 X173.649 Y85.961 F7200
G1 X160.839 Y98.770 E46.44297 F3600
G0 X160.839 Y99.335 F7200
G1 X174.214 Y85.961 E47.07209 F3600
G0 X174.780 Y85.961 F7200
G1 X160.839 Y99.901 E47.72780 F3600
G0 X160.839 Y100.467 F7200
G1 X175.346 Y85.961 E48.41013 F3600
G0 X175.911 Y85.961 F7200
G1 X160.839 Y101.033 E49.11907 F3600
G0 X160.839 Y101.598 F7200
G1 X176.477 Y85.961 E49.85462 F3600
G0 X177.043 Y85.961 F7200
G1 X160.839 Y102.164 E50.61677 F3600
G0 X160.839 Y102.730 F7200
G1 X177.608 Y85.961 E51.40553 F3600
G0 X178.174 Y85.961 F7200
G1 X160.839 Y103.295 E52.22090 F3600
G0 X160.839 Y103.861 F7200
G1 X178.740 Y85.961 E53.06288 F3600
G0 X179.305 Y85.961 F7200
G1 X160.839 Y104.427 E53.93147 F3600
G0 X160.839 Y104.992 F7200
G1 X179.871 Y85.961 E54.82666 F3600
G0 X180.437 Y85.961 F7200
G1 X160.839 Y105.558 E55.74847 F3600
G0 X160.839 Y106.124 F7200
G1 X181.003 Y85.961 E56.69688 F3600
G0 X181.568 Y85.961 F7200
G1 X160.839 Y106.689 E57.67190 F3600
G0 X160.839 Y107.255 F7200
G1 X182.134 Y85.961 E58.67353 F3600
G0 X182.700 Y85.961 F7200
G1 X160.839 Y107.821 E59.70177 F3600
G0 X160.839 Y108.386 F7200
G1 X183.265 Y85.961 E60.75661 F3600
G0 X183.831 Y85.961 F7200
G1 X160.839 Y108.952 E61.83806 F3600
G0 X160.839 Y109.518 F7200
G1 X184.397 Y85.961 E62.94612 F3600
G0 X184.962 Y85.961 F7200
G1 X160.839 Y110.084 E64.08079 F3600
G0 X160.839 Y110.649 F7200
G1 X185.528 Y85.961 E65.24207 F3600
G0 X239.474 Y114.039 F7200
G1 X239.918 Y113.595 E65.26299 F3600
G0 X239.918 Y113.029 F7200
G1 X238.908 Y114.039 E65.31052 F3600
G0 X238.342 Y114.039 F7200
G1 X239.918 Y112.463 E65.38466 F3600
G0 X239.918 Y111.898 F7200
G1 X237.777 Y114.039 E65.48541 F3600
G0 X237.211 Y114.039 F7200
G1 X239.918 Y111.332 E65.61276 F3600
G0 X239.918 Y110.766 F7200
G1 X236.645 Y114.039 E65.76673 F3600
G0 X236.079 Y114.039 F7200
G1 X239.918 Y110.200 E65.94730 F3600
G0 X239.918 Y109.635 F7200
G1 X235.514 Y114.039 E66.15448 F3600
G0 X234.948 Y114.039 F7200
G1 X239.918 Y109.069 E66.38827 F3600
G0 X239.918 Y108.503 F7200
G1 X234.382 Y114.039 E66.64867 F3600
G0 X233.817 Y114.039 F7200
G1 X239.918 Y107.938 E66.93567 F3600
G0 X239.918 Y107.372 F7200
G1 X233.251 Y114.039 E67.24929 F3600
G0 X232.685 Y114.039 F7200
G1 X239.918 Y106.806 E67.58951 F3600
G0 X239.918 Y106.241 F7200
G1 X232.120 Y114.039 E67.95634 F3600
G0 X231.554 Y114.039 F7200
G1 X239.918 Y105.675 E68.34978 F3600
G0 X239.918 Y105.109 F7200
G1 X230.988 Y114.039 E68.76982 F3600
G0 X230.423 Y114.039 F7200
G1 X239.918 Y104.544 E69.21648 F3600
G0 X239.918 Y103.978 F7200
G1 X229.857 Y114.039 E69.68974 F3600
G0 X229.291 Y114.039 F7200
G1 X239.918 Y103.412 E70.18961 F3600
G0 X239.918 Y102.847 F7200
G1 X228.726 Y114.039 E70.71609 F3600
G0 X228.160 Y114.039 F7200
G1 X239.918 Y102.281 E71.26918 F3600
G0 X239.918 Y101.715 F7200
G1 X227.594 Y114.039 E71.84887 F3600
G0 X227.028 Y114.039 F7200
G1 X239.918 Y101.149 E72.45517 F3600
G0 X239.918 Y100.584 F7200
G1 X226.463 Y114.039 E73.08808 F3600
G0 X225.897 Y114.039 F7200
G1 X239.918 Y100.018 E73.74761 F3600
G0 X239.918 Y99.452 F7200
G1 X225.331 Y114.039 E74.43373 F3600
G0 X224.766 Y114.039 F7200
G1 X239.918 Y98.887 E75.14647 F3600
G0 X239.918 Y98.321 F7200
G1 X224.200 Y114.039 E75.88581 F3600
G0 X223.634 Y114.039 F7200
G1 X239.918 Y97.755 E76.65177 F3600
G0 X239.918 Y97.190 F7200
G1 X223.069 Y114.039 E77.44432 F3600
G0 X222.503 Y114.039 F7200
G1 X239.918 Y96.624 E78.26349 F3600
G0 X239.918 Y96.058 F7200
G1 X221.937 Y114.039 E79.10927 F3600
G0 X221.372 Y114.039 F7200
G1 X239.918 Y95.493 E79.98165 F3600
G0 X239.918 Y94.927 F7200
G1 X220.806 Y114.039 E80.88065 F3600
G0 X220.240 Y114.039 F7200
G1 X239.918 Y94.361 E81.80625 F3600
G0 X239.918 Y93.796 F7200
G1 X219.675 Y114.039 E82.75846 F3600
G0 X219.109 Y114.039 F7200
G1 X239.918 Y93.230 E83.73728 F3600
G0 X239.918 Y92.664 F7200
G1 X218.543 Y114.039 E84.74270 F3600
G0 X217.977 Y114.039 F7200
G1 X239.918 Y92.098 E85.77473 F3600
G0 X239.918 Y91.533 F7200
G1 X217.412 Y114.039 E86.83338 F3600
G0 X216.846 Y114.039 F7200
G1 X239.918 Y90.967 E87.91863 F3600
G0 X239.918 Y90.401 F7200
G1 X216.280 Y114.039 E89.03049 F3600
G0 X215.715 Y114.039 F7200
G1 X239.918 Y89.836 E90.16896 F3600
G0 X239.918 Y89.270 F7200
G1 X215.149 Y114.039 E91.33404 F3600
G0 X214.583 Y114.039 F7200
G1 X239.918 Y88.704 E92.52572 F3600
G0 X239.918 Y88.139 F7200
G1 X214.018 Y114.039 E93.74401 F3600
G0 X213.452 Y114.039 F7200
G1 X239.918 Y87.573 E94.98891 F3600
G0 X239.918 Y87.007 F7200
G1 X212.886 Y114.039 E96.26042 F3600
G0 X212.321 Y114.039 F7200
G1 X239.918 Y86.442 E97.55854 F3600
G0 X239.834 Y85.960 F7200
G1 X211.755 Y114.039 E98.87929 F3600
G0 X211.189 Y114.039 F7200
G1 X239.268 Y85.960 E100.20004 F3600
G0 X238.703 Y85.960 F7200
G1 X210.624 Y114.039 E101.52078 F3600
G0 X210.058 Y114.039 F7200
G1 X238.137 Y85.960 E102.84153 F3600
G0 X237.571 Y85.960 F7200
G1 X209.492 Y114.039 E104.16228 F3600
G0 X208.927 Y114.039 F7200
G1 X237.006 Y85.960 E105.48302 F3600
G0 X236.440 Y85.960 F7200
G1 X208.361 Y114.039 E106.80377 F3600
G0 X207.795 Y114.039 F7200
G1 X235.874 Y85.960 E108.12452 F3600
G0 X235.308 Y85.960 F7200
G1 X207.229 Y114.039 E109.44527 F3600
G0 X206.664 Y114.039 F7200
G1 X234.743 Y85.960 E110.76601 F3600
G0 X234.177 Y85.960 F7200
G1 X206.098 Y114.039 E112.08676 F3600
G0 X205.532 Y114.039 F7200
G1 X233.611 Y85.960 E113.40751 F3600
G0 X233.046 Y85.960 F7200
G1 X204.967 Y114.039 E114.72826 F3600
G0 X204.401 Y114.039 F7200
G1 X232.480 Y85.960 E116.04900 F3600
G0 X231.914 Y85.960 F7200
G1 X203.835 Y114.039 E117.36975 F3600
G0 X203.270 Y114.039 F7200
G1 X231.349 Y85.960 E118.69050 F3600
G0 X230.783 Y85.960 F7200
G1 X202.704 Y114.039 E120.01125 F3600
G0 X202.138 Y114.039 F7200
G1 X230.217 Y85.960 E121.33199 F3600
G0 X229.652 Y85.960 F7200
G1 X201.573 Y114.039 E122.65274 F3600
G0 X201.007 Y114.039 F7200
G1 X229.086 Y85.960 E123.97349 F3600
G0 X228.520 Y85.960 F7200
G1 X200.441 Y114.039 E125.29424 F3600
G0 X199.876 Y114.039 F7200
G1 X227.955 Y85.960 E126.61498 F3600
G0 X227.389 Y85.960 F7200
G1 X199.310 Y114.039 E127.93573 F3600
G0 X198.744 Y114.039 F7200
G1 X226.823 Y85.960 E129.25648 F3600
G0 X226.257 Y85.960 F7200
G1 X198.178 Y114.039 E130.57724 F3600
G0 X197.613 Y114.039 F7200
G1 X225.692 Y85.960 E131.89799 F3600
G0 X225.126 Y85.960 F7200
G1 X197.047 Y114.039 E133.21875 F3600
G0 X196.481 Y114.039 F7200
G1 X224.560 Y85.960 E134.53951 F3600
G0 X223.995 Y85.960 F7200
G1 X195.916 Y114.039 E135.86026 F3600
G0 X195.350 Y114.039 F7200
G1 X223.429 Y85.960 E137.18102 F3600
G0 X222.863 Y85.960 F7200
G1 X194.784 Y114.039 E138.50177 F3600
G0 X194.219 Y114.039 F7200
G1 X222.298 Y85.960 E139.82253 F3600
G0 X221.732 Y85.960 F7200
G1 X193.653 Y114.039 E141.14328 F3600
G0 X193.087 Y114.039 F7200
G1 X221.166 Y85.960 E142.46404 F3600
G0 X220.601 Y85.960 F7200
G1 X192.522 Y114.039 E143.78479 F3600
G0 X191.956 Y114.039 F7200
G1 X220.035 Y85.960 E145.10555 F3600
G0 X219.469 Y85.960 F7200
G1 X191.390 Y114.039 E146.42630 F3600
G0 X190.825 Y114.039 F7200
G1 X218.904 Y85.960 E147.74706 F3600
G0 X218.338 Y85.960 F7200
G1 X190.259 Y114.039 E149.06781 F3600
G0 X189.693 Y114.039 F7200
G1 X217.772 Y85.960 E150.38857 F3600
G0 X217.206 Y85.960 F7200
G1 X189.127 Y114.040 E151.70932 F3600
G0 X188.562 Y114.040 F7200
G1 X216.641 Y85.960 E153.03008 F3600
G0 X216.075 Y85.960 F7200
G1 X187.996 Y114.039 E154.35083 F3600
G0 X187.430 Y114.039 F7200
G1 X215.509 Y85.960 E155.67159 F3600
G0 X214.944 Y85.960 F7200
G1 X186.865 Y114.039 E156.99234 F3600
G0 X186.299 Y114.040 F7200
G1 X214.378 Y85.960 E158.31310 F3600
G0 X213.812 Y85.960 F7200
G1 X185.733 Y114.040 E159.63385 F3600
G0 X185.168 Y114.040 F7200
G1 X213.247 Y85.960 E160.95461 F3600
G0 X212.681 Y85.960 F7200
G1 X184.602 Y114.040 E162.27536 F3600
G0 X184.036 Y114.040 F7200
G1 X212.115 Y85.961 E163.59612 F3600
G0 X211.550 Y85.961 F7200
G1 X183.471 Y114.040 E164.91687 F3600
G0 X182.905 Y114.040 F7200
G1 X210.984 Y85.960 E166.23763 F3600
G0 X210.418 Y85.960 F7200
G1 X182.339 Y114.040 E167.55838 F3600
G0 X181.774 Y114.040 F7200
G1 X209.853 Y85.960 E168.87914 F3600
G0 X209.287 Y85.961 F7200
G1 X181.208 Y114.040 E170.19990 F3600
G0 X180.642 Y114.040 F7200
G1 X208.721 Y85.961 E171.52064 F3600
G0 X208.155 Y85.961 F7200
G1 X180.077 Y114.040 E172.84140 F3600
G0 X179.511 Y114.040 F7200
G1 X207.590 Y85.961 E174.16216 F3600
G0 X207.024 Y85.961 F7200
G1 X178.945 Y114.040 E175.48292 F3600
G0 X178.379 Y114.040 F7200
G1 X206.458 Y85.961 E176.80366 F3600
G0 X205.893 Y85.961 F7200
G1 X177.814 Y114.040 E178.12442 F3600
G0 X177.248 Y114.040 F7200
G1 X205.327 Y85.961 E179.44518 F3600
G0 X204.761 Y85.961 F7200
G1 X176.682 Y114.040 E180.76594 F3600
G0 X176.117 Y114.040 F7200
G1 X204.196 Y85.961 E182.08668 F3600
G0 X203.630 Y85.961 F7200
G1 X175.551 Y114.040 E183.40744 F3600
G0 X174.985 Y114.040 F7200
G1 X203.064 Y85.961 E184.72820 F3600
G0 X202.499 Y85.961 F7200
G1 X174.420 Y114.040 E186.04896 F3600
G0 X173.854 Y114.040 F7200
G1 X201.933 Y85.961 E187.36970 F3600
G0 X201.367 Y85.961 F7200
G1 X173.288 Y114.040 E188.69046 F3600
G0 X172.723 Y114.040 F7200
G1 X200.802 Y85.961 E190.01122 F3600
G0 X200.236 Y85.961 F7200
G1 X172.157 Y114.040 E191.33198 F3600
G0 X171.591 Y114.040 F7200
G1 X199.670 Y85.961 E192.65272 F3600
G0 X199.105 Y85.961 F7200
G1 X171.026 Y114.040 E193.97348 F3600
G0 X170.460 Y114.040 F7200
G1 X198.539 Y85.961 E195.29424 F3600
G0 X197.973 Y85.961 F7200
G1 X169.894 Y114.040 E196.61500 F3600
G0 X169.328 Y114.040 F7200
G1 X197.407 Y85.961 E197.93574 F3600
G0 X196.842 Y85.961 F7200
G1 X168.763 Y114.040 E199.25650 F3600
G0 X168.197 Y114.040 F7200
G1 X196.276 Y85.961 E200.57726 F3600
G0 X195.710 Y85.961 F7200
G1 X167.631 Y114.040 E201.89802 F3600
G0 X167.066 Y114.040 F7200
G1 X195.145 Y85.961 E203.21876 F3600
G0 X194.579 Y85.961 F7200
G1 X166.500 Y114.040 E204.53952 F3600
G0 X165.934 Y114.040 F7200
G1 X194.013 Y85.961 E205.86028 F3600
G0 X193.448 Y85.961 F7200
G1 X165.369 Y114.040 E207.18104 F3600
G0 X164.803 Y114.040 F7200
G1 X192.882 Y85.961 E208.50178 F3600
G0 X192.316 Y85.961 F7200
G1 X164.237 Y114.040 E209.82254 F3600
G0 X163.672 Y114.040 F7200
G1 X191.751 Y85.961 E211.14330 F3600
G0 X191.185 Y85.961 F7200
G1 X163.106 Y114.040 E212.46406 F3600
G0 X162.540 Y114.040 F7200
G1 X190.619 Y85.961 E213.78480 F3600
G0 X190.054 Y85.961 F7200
G1 X161.975 Y114.040 E215.10556 F3600
G0 X161.409 Y114.040 F7200
G1 X189.488 Y85.961 E216.42632 F3600
G0 X188.922 Y85.961 F7200
G1 X160.843 Y114.040 E217.74708 F3600
G0 X160.277 Y114.040 F7200
G1 X188.356 Y85.961 E219.06782 F3600
G0 X187.791 Y85.961 F7200
G1 X159.712 Y114.040 E220.38858 F3600
G0 X159.146 Y114.040 F7200
G1 X187.225 Y85.961 E221.70934 F3600
G0 X186.659 Y85.961 F7200
G1 X158.580 Y114.040 E223.03010 F3600
; ------------------------------------
; Layer #4
; ------------------------------------
G92 E0 ;reset extr
G0 F3000 E-1.00000
G0 F600 Z1.000
G0 X109.300 Y111.700 F7200
G0 F3000 E0.00000
;segType:Support
G1 X71.500 Y111.700 E1.06865 F3600
G1 X71.500 Y109.900 E1.11954
G1 X109.300 Y109.900 E2.18818
G0 X109.300 Y115.300 F7200
G1 X71.500 Y115.300 E3.25683 F3600
G1 X71.500 Y113.500 E3.30772
G1 X109.300 Y113.500 E4.37637
G0 F3000 E3.37637
G0 X164.464 Y114.039 F7200
G0 F3000 E4.37637
;segType:Infill
G1 X160.839 Y110.415 E4.58095 F4500
G0 X160.479 Y109.101 F7200
;segType:Loop
G1 X160.479 Y85.600 E5.36257 F3600
G1 X240.279 Y85.600 E8.01671
G1 X240.279 Y114.400 E8.97457
G1 X110.479 Y114.400 E13.29171
G1 X110.479 Y110.601 E13.41807
G1 X160.479 Y110.601 E15.08107
G1 X160.479 Y109.301 E15.12431
G0 X160.079 Y110.941 F7200
;segType:Perimeter
G1 X160.079 Y110.141 E15.15091 F2160
G1 X160.079 Y85.200 E15.98043
G1 X240.679 Y85.200 E18.66117
G1 X240.679 Y114.800 E19.64565
G1 X110.079 Y114.800 E23.98939
G1 X110.079 Y110.201 E24.14235
G1 X160.019 Y110.201 E25.80336
G0 F3000 E24.80336
G0 X160.011 Y110.601 F7200
G0 X159.931 Y114.400
G0 X159.938 Y114.039
G0 F3000 E25.80336
;segType:Infill
G1 X156.860 Y110.961 E25.97714 F4500
G0 X155.413 Y114.039 F7200
G1 X152.334 Y110.961 E26.15092 F4500
G0 X150.888 Y114.039 F7200
G1 X147.809 Y110.961 E26.32469 F4500
G0 X146.362 Y114.039 F7200
G1 X143.283 Y110.961 E26.49847 F4500
G0 X141.837 Y114.039 F7200
G1 X138.758 Y110.961 E26.67225 F4500
G0 X132.786 Y114.039 F7200
G1 X129.707 Y110.961 E26.84602 F4500
G0 X123.735 Y114.039 F7200
G1 X120.656 Y110.961 E27.01980 F4500
G0 X114.684 Y114.039 F7200
G1 X111.605 Y110.961 E27.19358 F4500
G0 X116.130 Y110.961 F7200
G1 X119.209 Y114.039 E27.36735 F4500
G0 X125.181 Y110.961 F7200
G1 X128.260 Y114.039 E27.54113 F4500
G0 X134.232 Y110.961 F7200
G1 X137.311 Y114.039 E27.71491 F4500
G0 F3000 E26.71491
G0 X136.921 Y114.400 F7200
G0 X141.035 Y110.601
G0 X160.479 Y110.601
G0 X160.479 Y92.645
G0 X160.839 Y92.313
G0 F3000 E27.71491
G1 X182.566 Y114.039 E28.94124 F4500
G0 X187.091 Y114.039 F7200
G1 X160.839 Y87.787 E30.42301 F4500
G0 X163.538 Y85.960 F7200
G1 X191.617 Y114.039 E32.00791 F4500
G0 X196.142 Y114.039 F7200
G1 X168.063 Y85.960 E33.59280 F4500
G0 X172.589 Y85.960 F7200
G1 X200.668 Y114.039 E35.17770 F4500
G0 X205.193 Y114.039 F7200
G1 X177.114 Y85.960 E36.76259 F4500
G0 X181.640 Y85.960 F7200
G1 X209.719 Y114.039 E38.34749 F4500
G0 X214.244 Y114.039 F7200
G1 X186.165 Y85.960 E39.93239 F4500
G0 X190.691 Y85.960 F7200
G1 X218.770 Y114.039 E41.51728 F4500
G0 X235.946 Y85.960 F7200
G1 X239.918 Y89.933 E41.74152 F4500
G0 X239.918 Y94.459 F7200
G1 X231.420 Y85.960 E42.22120 F4500
G0 X226.895 Y85.960 F7200
G1 X239.918 Y98.984 E42.95631 F4500
G0 X239.918 Y103.510 F7200
G1 X222.369 Y85.960 E43.94687 F4500
G0 X217.844 Y85.960 F7200
G1 X239.918 Y108.035 E45.19286 F4500
G0 X239.918 Y112.561 F7200
G1 X213.318 Y85.960 E46.69429 F4500
G0 X208.793 Y85.960 F7200
G1 X236.872 Y114.039 E48.27918 F4500
G0 X232.346 Y114.039 F7200
G1 X204.267 Y85.960 E49.86408 F4500
G0 X195.216 Y85.960 F7200
G1 X223.295 Y114.039 E51.44897 F4500
G0 X227.821 Y114.039 F7200
G1 X199.742 Y85.960 E53.03387 F4500
G0 X178.040 Y114.039 F7200
G1 X160.839 Y96.838 E54.00477 F4500
G0 X160.839 Y101.364 F7200
G1 X173.515 Y114.039 E54.72023 F4500
G0 X168.989 Y114.039 F7200
G1 X160.839 Y105.889 E55.18025 F4500
; ------------------------------------
; Layer #5
; ------------------------------------
G92 E0 ;reset extr
G0 F3000 E-1.00000
G0 F600 Z1.200
G0 X160.479 Y105.930 F7200
G0 X160.479 Y110.601
G0 X119.052 Y110.601
G0 X110.479 Y111.567
G0 X109.300 Y111.700
G0 F3000 E0.00000
;segType:Support
G1 X71.500 Y111.700 E1.06865 F3600
G1 X71.500 Y109.900 E1.11954
G1 X109.300 Y109.900 E2.18819
G0 X109.300 Y115.300 F7200
G1 X71.500 Y115.300 E3.25683 F3600
G1 X71.500 Y113.500 E3.30772
G1 X109.300 Y113.500 E4.37637
G0 F3000 E3.37637
G0 X147.833 Y114.039 F7200
G0 F3000 E4.37637
;segType:Infill
G1 X150.911 Y110.961 E4.55015 F4500
G0 X152.358 Y114.039 F7200
G1 X155.437 Y110.961 E4.72392 F4500
G0 X156.884 Y114.039 F7200
G1 X159.962 Y110.961 E4.89770 F4500
G0 X160.079 Y110.941 F7200
;segType:Perimeter
G1 X160.079 Y110.141 E4.92431 F2160
G1 X160.079 Y85.200 E5.75382
G1 X240.679 Y85.200 E8.43456
G1 X240.679 Y114.800 E9.41904
G1 X110.079 Y114.800 E13.76278
G1 X110.079 Y110.201 E13.91574
G1 X160.019 Y110.201 E15.57675
G0 X159.852 Y110.601 F7200
G0 X160.479 Y110.601
G0 X160.479 Y109.101
G0 X160.479 Y109.101
;segType:Loop
G1 X160.479 Y85.600 E16.35837 F3600
G1 X240.279 Y85.600 E19.01251
G1 X240.279 Y114.400 E19.97037
G1 X110.479 Y114.400 E24.28751
G1 X110.479 Y110.601 E24.41387
G1 X160.479 Y110.601 E26.07687
G1 X160.479 Y109.301 E26.12011
G0 X160.839 Y110.083 F7200
;segType:Infill
G1 X184.962 Y85.960 E27.48172 F4500
G0 X189.488 Y85.960 F7200
G1 X161.409 Y114.039 E29.06661 F4500
G0 X165.934 Y114.039 F7200
G1 X194.013 Y85.960 E30.65151 F4500
G0 X198.539 Y85.960 F7200
G1 X170.460 Y114.039 E32.23641 F4500
G0 X174.985 Y114.039 F7200
G1 X203.064 Y85.960 E33.82130 F4500
G0 X207.590 Y85.960 F7200
G1 X179.511 Y114.039 E35.40620 F4500
G0 X188.562 Y114.039 F7200
G1 X216.641 Y85.960 E36.99109 F4500
G0 X221.166 Y85.960 F7200
G1 X193.087 Y114.039 E38.57599 F4500
G0 X197.613 Y114.039 F7200
G1 X225.692 Y85.960 E40.16089 F4500
G0 X230.217 Y85.960 F7200
G1 X202.138 Y114.039 E41.74578 F4500
G0 X206.664 Y114.039 F7200
G1 X234.743 Y85.960 E43.33068 F4500
G0 X239.268 Y85.960 F7200
G1 X211.189 Y114.039 E44.91558 F4500
G0 X215.715 Y114.039 F7200
G1 X239.918 Y89.836 E46.28173 F4500
G0 X239.918 Y94.361 F7200
G1 X220.240 Y114.039 E47.39245 F4500
G0 X224.766 Y114.039 F7200
G1 X239.918 Y98.887 E48.24773 F4500
G0 X239.918 Y103.412 F7200
G1 X229.291 Y114.039 E48.84757 F4500
G0 X233.817 Y114.039 F7200
G1 X239.918 Y107.938 E49.19198 F4500
G0 X239.918 Y112.463 F7200
G1 X238.342 Y114.039 E49.28095 F4500
G0 X212.115 Y85.960 F7200
G1 X184.036 Y114.039 E50.86585 F4500
G0 X171.386 Y85.960 F7200
G1 X160.839 Y96.507 E51.46114 F4500
G0 X160.839 Y91.982 F7200
G1 X166.861 Y85.960 E51.80100 F4500
G0 X162.335 Y85.960 F7200
G1 X160.839 Y87.456 E51.88542 F4500
G0 F3000 E50.88542
G0 X160.479 Y87.816 F7200
G0 X160.479 Y110.601
G0 X137.695 Y110.601
G0 X137.335 Y110.961
G0 F3000 E51.88542
G1 X134.256 Y114.039 E52.05919 F4500
G0 X128.284 Y110.961 F7200
G1 X125.205 Y114.039 E52.23297 F4500
G0 X119.233 Y110.961 F7200
G1 X116.154 Y114.039 E52.40674 F4500
G0 X111.629 Y114.039 F7200
G1 X114.707 Y110.961 E52.58052 F4500
G0 X120.680 Y114.039 F7200
G1 X123.758 Y110.961 E52.75429 F4500
G0 X129.731 Y114.039 F7200
G1 X132.809 Y110.961 E52.92806 F4500
G0 X138.782 Y114.039 F7200
G1 X141.860 Y110.961 E53.10184 F4500
G0 X143.307 Y114.039 F7200
G1 X146.386 Y110.961 E53.27561 F4500
G0 F3000 E52.27561
G0 X146.910 Y110.601 F7200
G0 X160.479 Y110.601
G0 X160.479 Y101.280
G0 X160.839 Y101.033
G0 F3000 E53.27561
G1 X175.911 Y85.960 E54.12635 F4500
G0 X180.437 Y85.960 F7200
G1 X160.839 Y105.558 E55.23252 F4500
; ------------------------------------
; Layer #6
; ------------------------------------
G92 E0 ;reset extr
G0 F3000 E-1.00000
G0 F600 Z1.400
G0 X160.479 Y105.601 F7200
G0 X160.479 Y110.601
G0 X118.526 Y110.601
G0 X110.479 Y111.559
G0 X109.300 Y111.700
G0 F3000 E0.00000
;segType:Support
G1 X71.500 Y111.700 E1.06865 F3600
G1 X71.500 Y109.900 E1.11954
G1 X109.300 Y109.900 E2.18818
G0 X109.300 Y115.300 F7200
G1 X71.500 Y115.300 E3.25683 F3600
G1 X71.500 Y113.500 E3.30772
G1 X109.300 Y113.500 E4.37637
G0 F3000 E3.37637
G0 X164.464 Y114.039 F7200
G0 F3000 E4.37637
;segType:Infill
G1 X160.839 Y110.415 E4.58095 F4500
G0 X160.479 Y109.101 F7200
;segType:Loop
G1 X160.479 Y85.600 E5.36258 F3600
G1 X240.279 Y85.600 E8.01671
G1 X240.279 Y114.400 E8.97457
G1 X110.479 Y114.400 E13.29171
G1 X110.479 Y110.601 E13.41807
G1 X160.479 Y110.601 E15.08107
G1 X160.479 Y109.301 E15.12431
G0 X160.079 Y110.941 F7200
;segType:Perimeter
G1 X160.079 Y110.141 E15.15092 F2160
G1 X160.079 Y85.200 E15.98043
G1 X240.679 Y85.200 E18.66117
G1 X240.679 Y114.800 E19.64565
G1 X110.079 Y114.800 E23.98939
G1 X110.079 Y110.201 E24.14236
G1 X160.019 Y110.201 E25.80337
G0 F3000 E24.80337
G0 X160.479 Y109.817 F7200
G0 X160.479 Y110.601
G0 X159.539 Y110.601
G0 X154.981 Y114.400
G0 X155.413 Y114.039
G0 F3000 E25.80337
;segType:Infill
G1 X152.334 Y110.961 E25.97714 F4500
G0 X147.809 Y110.961 F7200
G1 X150.888 Y114.039 E26.15092 F4500
G0 X141.837 Y114.039 F7200
G1 X138.758 Y110.961 E26.32470 F4500
G0 X137.311 Y114.039 F7200
G1 X134.232 Y110.961 E26.49847 F4500
G0 X128.260 Y114.039 F7200
G1 X125.181 Y110.961 E26.67225 F4500
G0 X119.209 Y114.039 F7200
G1 X116.130 Y110.961 E26.84603 F4500
G0 X111.605 Y110.961 F7200
G1 X114.684 Y114.039 E27.01980 F4500
G0 X120.656 Y110.961 F7200
G1 X123.735 Y114.039 E27.19358 F4500
G0 X129.707 Y110.961 F7200
G1 X132.786 Y114.039 E27.36736 F4500
G0 X143.283 Y110.961 F7200
G1 X146.362 Y114.039 E27.54113 F4500
G0 X156.860 Y110.961 F7200
G1 X159.938 Y114.039 E27.71491 F4500
G0 X168.989 Y114.039 F7200
G1 X160.839 Y105.889 E28.17493 F4500
G0 F3000 E27.17493
G0 X163.538 Y85.960 F7200
G0 F3000 E28.17493
G1 X191.617 Y114.039 E29.75983 F4500
G0 X196.142 Y114.039 F7200
G1 X168.063 Y85.960 E31.34473 F4500
G0 X172.589 Y85.960 F7200
G1 X200.668 Y114.039 E32.92962 F4500
G0 X205.193 Y114.039 F7200
G1 X177.114 Y85.960 E34.51452 F4500
G0 X181.640 Y85.960 F7200
G1 X209.719 Y114.039 E36.09942 F4500
G0 X214.244 Y114.039 F7200
G1 X186.165 Y85.960 E37.68431 F4500
G0 X190.691 Y85.960 F7200
G1 X218.770 Y114.039 E39.26921 F4500
G0 X235.946 Y85.960 F7200
G1 X239.918 Y89.933 E39.49345 F4500
G0 X239.918 Y94.459 F7200
G1 X231.420 Y85.960 E39.97313 F4500
G0 X226.895 Y85.960 F7200
G1 X239.918 Y98.984 E40.70824 F4500
G0 X239.918 Y103.510 F7200
G1 X222.369 Y85.960 E41.69880 F4500
G0 X217.844 Y85.960 F7200
G1 X239.918 Y108.035 E42.94479 F4500
G0 X239.918 Y112.561 F7200
G1 X213.318 Y85.960 E44.44622 F4500
G0 X208.793 Y85.960 F7200
G1 X236.872 Y114.039 E46.03112 F4500
G0 X232.346 Y114.039 F7200
G1 X204.267 Y85.960 E47.61601 F4500
G0 X199.742 Y85.960 F7200
G1 X227.821 Y114.039 E49.20091 F4500
G0 X223.295 Y114.039 F7200
G1 X195.216 Y85.960 E50.78580 F4500
G0 F3000 E49.78580
G0 X195.321 Y85.600 F7200
G0 X186.987 Y114.400
G0 X187.091 Y114.039
G0 F3000 E50.78580
G1 X160.839 Y87.787 E52.26758 F4500
G0 X160.839 Y92.313 F7200
G1 X182.566 Y114.039 E53.49391 F4500
G0 X178.040 Y114.039 F7200
G1 X160.839 Y96.838 E54.46481 F4500
G0 X160.839 Y101.364 F7200
G1 X173.515 Y114.039 E55.18027 F4500
; ------------------------------------
; Layer #7
; ------------------------------------
G92 E0 ;reset extr
G0 F3000 E-1.00000
G0 F600 Z1.600
G0 X109.300 Y111.700 F7200
G0 F3000 E0.00000
;segType:Support
G1 X71.500 Y111.700 E1.06865 F3600
G1 X71.500 Y109.900 E1.11954
G1 X109.300 Y109.900 E2.18818
G0 X109.300 Y115.300 F7200
G1 X71.500 Y115.300 E3.25683 F3600
G1 X71.500 Y113.500 E3.30772
G1 X109.300 Y113.500 E4.37637
G0 F3000 E3.37637
G0 X147.833 Y114.039 F7200
G0 F3000 E4.37637
;segType:Infill
G1 X150.911 Y110.961 E4.55014 F4500
G0 X152.358 Y114.039 F7200
G1 X155.437 Y110.961 E4.72392 F4500
G0 X156.884 Y114.039 F7200
G1 X159.962 Y110.961 E4.89769 F4500
G0 X160.079 Y110.941 F7200
;segType:Perimeter
G1 X160.079 Y110.141 E4.92430 F2160
G1 X160.079 Y85.200 E5.75381
G1 X240.679 Y85.200 E8.43455
G1 X240.679 Y114.800 E9.41903
G1 X110.079 Y114.800 E13.76277
G1 X110.079 Y110.201 E13.91573
G1 X160.019 Y110.201 E15.57674
G0 X159.852 Y110.601 F7200
G0 X160.479 Y110.601
G0 X160.479 Y109.101
G0 X160.479 Y109.101
;segType:Loop
G1 X160.479 Y85.600 E16.35836 F3600
G1 X240.279 Y85.600 E19.01249
G1 X240.279 Y114.400 E19.97036
G1 X110.479 Y114.400 E24.28749
G1 X110.479 Y110.601 E24.41385
G1 X160.479 Y110.601 E26.07685
G1 X160.479 Y109.301 E26.12009
G0 X160.839 Y110.084 F7200
;segType:Infill
G1 X184.963 Y85.960 E27.48170 F4500
G0 X202.138 Y114.039 F7200
G1 X230.217 Y85.960 E29.06660 F4500
G0 X234.743 Y85.960 F7200
G1 X206.664 Y114.039 E30.65149 F4500
G0 X211.189 Y114.039 F7200
G1 X239.268 Y85.960 E32.23639 F4500
G0 F3000 E31.23639
G0 X239.918 Y89.836 F7200
G0 F3000 E32.23639
G1 X215.715 Y114.039 E33.60254 F4500
G0 X220.240 Y114.039 F7200
G1 X239.918 Y94.361 E34.71325 F4500
G0 X239.918 Y98.887 F7200
G1 X224.766 Y114.039 E35.56853 F4500
G0 F3000 E34.56853
G0 X239.918 Y112.463 F7200
G0 F3000 E35.56853
G1 X238.342 Y114.039 E35.65749 F4500
G0 X233.817 Y114.039 F7200
G1 X239.918 Y107.938 E36.00190 F4500
G0 X239.918 Y103.412 F7200
G1 X229.291 Y114.039 E36.60174 F4500
G0 F3000 E35.60174
G0 X229.337 Y114.400 F7200
G0 X225.646 Y85.600
G0 X225.692 Y85.960
G0 F3000 E36.60174
G1 X197.613 Y114.039 E38.18663 F4500
G0 X193.087 Y114.039 F7200
G1 X221.166 Y85.960 E39.77153 F4500
G0 X216.641 Y85.960 F7200
G1 X188.562 Y114.039 E41.35642 F4500
G0 X184.037 Y114.039 F7200
G1 X212.115 Y85.960 E42.94132 F4500
G0 X207.590 Y85.960 F7200
G1 X179.511 Y114.039 E44.52622 F4500
G0 X174.986 Y114.039 F7200
G1 X203.064 Y85.960 E46.11111 F4500
G0 X198.539 Y85.960 F7200
G1 X170.460 Y114.039 E47.69601 F4500
G0 X165.935 Y114.039 F7200
G1 X194.013 Y85.960 E49.28091 F4500
G0 X189.488 Y85.960 F7200
G1 X161.409 Y114.039 E50.86580 F4500
G0 X146.386 Y110.961 F7200
G1 X143.307 Y114.039 E51.03958 F4500
G0 X137.335 Y110.961 F7200
G1 X134.256 Y114.039 E51.21335 F4500
G0 X129.731 Y114.039 F7200
G1 X132.809 Y110.961 E51.38713 F4500
G0 X128.284 Y110.961 F7200
G1 X125.205 Y114.039 E51.56090 F4500
G0 X119.233 Y110.961 F7200
G1 X116.154 Y114.039 E51.73468 F4500
G0 X111.629 Y114.039 F7200
G1 X114.707 Y110.961 E51.90845 F4500
G0 X120.680 Y114.039 F7200
G1 X123.758 Y110.961 E52.08222 F4500
G0 X138.782 Y114.039 F7200
G1 X141.860 Y110.961 E52.25600 F4500
G0 F3000 E51.25600
G0 X143.125 Y110.601 F7200
G0 X160.479 Y110.601
G0 X160.479 Y105.661
G0 X160.839 Y105.558
G0 F3000 E52.25600
G1 X180.437 Y85.960 E53.36217 F4500
G0 X175.912 Y85.960 F7200
G1 X160.839 Y101.033 E54.21291 F4500
G0 X160.839 Y96.507 F7200
G1 X171.386 Y85.960 E54.80821 F4500
G0 F3000 E53.80821
G0 X160.839 Y87.456 F7200
G0 F3000 E54.80821
G1 X162.335 Y85.960 E54.89264 F4500
G0 X166.861 Y85.960 F7200
G1 X160.839 Y91.982 E55.23250 F4500
; ------------------------------------
; Layer #8
; ------------------------------------
G92 E0 ;reset extr
G0 F3000 E-1.00000
G0 F600 Z1.800
G0 X160.479 Y92.119 F7200
G0 X160.479 Y110.601
G0 X112.174 Y110.601
G0 X110.479 Y111.249
G0 X109.300 Y111.700
G0 F3000 E0.00000
;segType:Support
G1 X71.500 Y111.700 E1.06865 F3600
G1 X71.500 Y109.900 E1.11954
G1 X109.300 Y109.900 E2.18819
G0 X109.300 Y115.300 F7200
G1 X71.500 Y115.300 E3.25683 F3600
G1 X71.500 Y113.500 E3.30772
G1 X109.300 Y113.500 E4.37637
G0 F3000 E3.37637
G0 X164.464 Y114.039 F7200
G0 F3000 E4.37637
;segType:Infill
G1 X160.839 Y110.415 E4.58096 F4500
G0 X160.479 Y109.101 F7200
;segType:Loop
G1 X160.479 Y85.600 E5.36258 F3600
G1 X240.279 Y85.600 E8.01671
G1 X240.279 Y114.400 E8.97458
G1 X110.479 Y114.400 E13.29172
G1 X110.479 Y110.601 E13.41807
G1 X160.479 Y110.601 E15.08108
G1 X160.479 Y109.301 E15.12432
G0 X160.079 Y110.941 F7200
;segType:Perimeter
G1 X160.079 Y110.141 E15.15092 F2160
G1 X160.079 Y85.200 E15.98044
G1 X240.679 Y85.200 E18.66118
G1 X240.679 Y114.800 E19.64565
G1 X110.079 Y114.800 E23.98940
G1 X110.079 Y110.201 E24.14236
G1 X160.019 Y110.201 E25.80337
G0 F3000 E24.80337
G0 X160.011 Y110.601 F7200
G0 X159.931 Y114.400
G0 X159.939 Y114.039
G0 F3000 E25.80337
;segType:Infill
G1 X156.860 Y110.961 E25.97715 F4500
G0 X155.413 Y114.039 F7200
G1 X152.334 Y110.961 E26.15093 F4500
G0 X150.888 Y114.039 F7200
G1 X147.809 Y110.961 E26.32470 F4500
G0 X146.362 Y114.039 F7200
G1 X143.283 Y110.961 E26.49848 F4500
G0 X141.837 Y114.039 F7200
G1 X138.758 Y110.961 E26.67226 F4500
G0 X132.786 Y114.039 F7200
G1 X129.707 Y110.961 E26.84603 F4500
G0 X123.735 Y114.039 F7200
G1 X120.656 Y110.961 E27.01981 F4500
G0 X114.684 Y114.039 F7200
G1 X111.605 Y110.961 E27.19359 F4500
G0 X116.130 Y110.961 F7200
G1 X119.209 Y114.039 E27.36736 F4500
G0 X125.181 Y110.961 F7200
G1 X128.260 Y114.039 E27.54114 F4500
G0 X134.232 Y110.961 F7200
G1 X137.311 Y114.039 E27.71492 F4500
G0 F3000 E26.71492
G0 X136.921 Y114.400 F7200
G0 X141.035 Y110.601
G0 X160.479 Y110.601
G0 X160.479 Y92.645
G0 X160.839 Y92.313
G0 F3000 E27.71492
G1 X182.566 Y114.039 E28.94126 F4500
G0 X187.091 Y114.039 F7200
G1 X160.839 Y87.787 E30.42304 F4500
G0 X163.538 Y85.960 F7200
G1 X191.617 Y114.039 E32.00794 F4500
G0 X196.142 Y114.039 F7200
G1 X168.063 Y85.960 E33.59284 F4500
G0 X172.589 Y85.960 F7200
G1 X200.668 Y114.039 E35.17774 F4500
G0 X205.193 Y114.039 F7200
G1 X177.114 Y85.960 E36.76264 F4500
G0 X181.640 Y85.960 F7200
G1 X209.719 Y114.039 E38.34754 F4500
G0 X214.244 Y114.039 F7200
G1 X186.165 Y85.960 E39.93244 F4500
G0 X190.691 Y85.960 F7200
G1 X218.770 Y114.039 E41.51734 F4500
G0 X235.946 Y85.960 F7200
G1 X239.918 Y89.933 E41.74157 F4500
G0 X239.918 Y94.459 F7200
G1 X231.420 Y85.960 E42.22124 F4500
G0 X226.895 Y85.960 F7200
G1 X239.918 Y98.984 E42.95635 F4500
G0 X239.918 Y103.510 F7200
G1 X222.369 Y85.960 E43.94689 F4500
G0 X217.844 Y85.960 F7200
G1 X239.918 Y108.035 E45.19288 F4500
G0 X239.918 Y112.561 F7200
G1 X213.318 Y85.960 E46.69430 F4500
G0 X208.793 Y85.960 F7200
G1 X236.872 Y114.039 E48.27920 F4500
G0 X232.346 Y114.039 F7200
G1 X204.267 Y85.960 E49.86410 F4500
G0 X195.216 Y85.960 F7200
G1 X223.295 Y114.039 E51.44899 F4500
G0 X227.821 Y114.039 F7200
G1 X199.742 Y85.960 E53.03389 F4500
G0 X178.041 Y114.039 F7200
G1 X160.839 Y96.838 E54.00479 F4500
G0 X160.839 Y101.364 F7200
G1 X173.515 Y114.039 E54.72026 F4500
G0 X168.990 Y114.039 F7200
G1 X160.839 Y105.889 E55.18029 F4500
; ------------------------------------
; Layer #9
; ------------------------------------
G92 E0 ;reset extr
G0 F3000 E-1.00000
G0 F600 Z2.000
G0 X160.479 Y105.930 F7200
G0 X160.479 Y110.601
G0 X119.052 Y110.601
G0 X110.479 Y111.567
G0 X109.300 Y111.700
G0 F3000 E0.00000
;segType:Support
G1 X71.500 Y111.700 E1.06865 F3600
G1 X71.500 Y109.900 E1.11954
G1 X109.300 Y109.900 E2.18818
G0 X109.300 Y115.300 F7200
G1 X71.500 Y115.300 E3.25683 F3600
G1 X71.500 Y113.500 E3.30772
G1 X109.300 Y113.500 E4.37637
G0 F3000 E3.37637
G0 X147.833 Y114.039 F7200
G0 F3000 E4.37637
;segType:Infill
G1 X150.911 Y110.961 E4.55014 F4500
G0 X152.358 Y114.039 F7200
G1 X155.437 Y110.961 E4.72392 F4500
G0 X156.884 Y114.039 F7200
G1 X159.962 Y110.961 E4.89770 F4500
G0 X160.079 Y110.941 F7200
;segType:Perimeter
G1 X160.079 Y110.141 E4.92431 F2160
G1 X160.079 Y85.200 E5.75382
G1 X240.679 Y85.200 E8.43456
G1 X240.679 Y114.800 E9.41903
G1 X110.079 Y114.800 E13.76278
G1 X110.079 Y110.201 E13.91574
G1 X160.019 Y110.201 E15.57675
G0 X159.852 Y110.601 F7200
G0 X160.479 Y110.601
G0 X160.479 Y109.101
G0 X160.479 Y109.101
;segType:Loop
G1 X160.479 Y85.600 E16.35837 F3600
G1 X240.279 Y85.600 E19.01250
G1 X240.279 Y114.400 E19.97036
G1 X110.479 Y114.400 E24.28750
G1 X110.479 Y110.601 E24.41385
G1 X160.479 Y110.601 E26.07685
G1 X160.479 Y109.301 E26.12009
G0 X160.839 Y110.084 F7200
;segType:Infill
G1 X184.963 Y85.960 E27.48171 F4500
G0 X189.488 Y85.960 F7200
G1 X161.409 Y114.039 E29.06660 F4500
G0 X165.935 Y114.039 F7200
G1 X194.014 Y85.960 E30.65149 F4500
G0 X198.539 Y85.960 F7200
G1 X170.460 Y114.039 E32.23639 F4500
G0 X174.986 Y114.039 F7200
G1 X203.064 Y85.960 E33.82129 F4500
G0 X207.590 Y85.960 F7200
G1 X179.511 Y114.039 E35.40618 F4500
G0 X188.562 Y114.039 F7200
G1 X216.641 Y85.960 E36.99107 F4500
G0 X221.166 Y85.960 F7200
G1 X193.088 Y114.039 E38.57596 F4500
G0 X197.613 Y114.039 F7200
G1 X225.692 Y85.960 E40.16086 F4500
G0 X230.217 Y85.960 F7200
G1 X202.138 Y114.039 E41.74575 F4500
G0 X206.664 Y114.039 F7200
G1 X234.743 Y85.960 E43.33064 F4500
G0 X239.268 Y85.960 F7200
G1 X211.189 Y114.039 E44.91553 F4500
G0 X215.715 Y114.039 F7200
G1 X239.918 Y89.836 E46.28168 F4500
G0 X239.918 Y94.361 F7200
G1 X220.240 Y114.039 E47.39239 F4500
G0 X224.766 Y114.039 F7200
G1 X239.918 Y98.887 E48.24766 F4500
G0 X239.918 Y103.412 F7200
G1 X229.291 Y114.039 E48.84749 F4500
G0 X233.817 Y114.039 F7200
G1 X239.918 Y107.938 E49.19189 F4500
G0 X239.918 Y112.463 F7200
G1 X238.342 Y114.039 E49.28085 F4500
G0 X212.115 Y85.960 F7200
G1 X184.037 Y114.039 E50.86574 F4500
G0 X171.386 Y85.960 F7200
G1 X160.839 Y96.507 E51.46104 F4500
G0 X160.839 Y91.982 F7200
G1 X166.861 Y85.960 E51.80091 F4500
G0 X162.335 Y85.960 F7200
G1 X160.839 Y87.456 E51.88533 F4500
G0 F3000 E50.88533
G0 X160.479 Y87.816 F7200
G0 X160.479 Y110.601
G0 X137.695 Y110.601
G0 X137.335 Y110.961
G0 F3000 E51.88533
G1 X134.256 Y114.039 E52.05911 F4500
G0 X128.284 Y110.961 F7200
G1 X125.205 Y114.039 E52.23288 F4500
G0 X119.233 Y110.961 F7200
G1 X116.154 Y114.039 E52.40666 F4500
G0 X111.629 Y114.039 F7200
G1 X114.707 Y110.961 E52.58044 F4500
G0 X120.680 Y114.039 F7200
G1 X123.758 Y110.961 E52.75421 F4500
G0 X129.731 Y114.039 F7200
G1 X132.809 Y110.961 E52.92799 F4500
G0 X138.782 Y114.039 F7200
G1 X141.860 Y110.961 E53.10177 F4500
G0 X143.307 Y114.039 F7200
G1 X146.386 Y110.961 E53.27555 F4500
G0 F3000 E52.27555
G0 X146.910 Y110.601 F7200
G0 X160.479 Y110.601
G0 X160.479 Y101.280
G0 X160.839 Y101.033
G0 F3000 E53.27555
G1 X175.912 Y85.960 E54.12628 F4500
G0 X180.437 Y85.960 F7200
G1 X160.839 Y105.558 E55.23246 F4500
; ------------------------------------
; Layer #10
; ------------------------------------
G92 E0 ;reset extr
G0 F3000 E-1.00000
G0 F600 Z2.200
G0 X160.479 Y105.601 F7200
G0 X160.479 Y110.601
G0 X118.526 Y110.601
G0 X110.479 Y111.559
G0 X109.300 Y111.700
G0 F3000 E0.00000
;segType:Support
G1 X71.500 Y111.700 E1.06865 F3600
G1 X71.500 Y109.900 E1.11954
G1 X109.300 Y109.900 E2.18819
G0 X109.300 Y115.300 F7200
G1 X71.500 Y115.300 E3.25683 F3600
G1 X71.500 Y113.500 E3.30772
G1 X109.300 Y113.500 E4.37637
G0 F3000 E3.37637
G0 X164.464 Y114.039 F7200
G0 F3000 E4.37637
;segType:Infill
G1 X160.839 Y110.415 E4.58096 F4500
G0 X160.479 Y109.101 F7200
;segType:Loop
G1 X160.479 Y85.600 E5.36258 F3600
G1 X240.279 Y85.600 E8.01672
G1 X240.279 Y114.400 E8.97458
G1 X110.479 Y114.400 E13.29172
G1 X110.479 Y110.601 E13.41808
G1 X160.479 Y110.601 E15.08108
G1 X160.479 Y109.301 E15.12432
G0 X160.079 Y110.941 F7200
;segType:Perimeter
G1 X160.079 Y110.141 E15.15093 F2160
G1 X160.079 Y85.200 E15.98044
G1 X240.679 Y85.200 E18.66118
G1 X240.679 Y114.800 E19.64566
G1 X110.079 Y114.800 E23.98940
G1 X110.079 Y110.201 E24.14236
G1 X160.019 Y110.201 E25.80337
G0 F3000 E24.80337
G0 X160.479 Y109.817 F7200
G0 X160.479 Y110.601
G0 X159.539 Y110.601
G0 X154.981 Y114.400
G0 X155.413 Y114.039
G0 F3000 E25.80337
;segType:Infill
G1 X152.334 Y110.961 E25.97715 F4500
G0 X147.809 Y110.961 F7200
G1 X150.888 Y114.039 E26.15092 F4500
G0 X141.837 Y114.039 F7200
G1 X138.758 Y110.961 E26.32470 F4500
G0 X137.311 Y114.039 F7200
G1 X134.232 Y110.961 E26.49848 F4500
G0 X128.260 Y114.039 F7200
G1 X125.181 Y110.961 E26.67225 F4500
G0 X119.209 Y114.039 F7200
G1 X116.131 Y110.961 E26.84603 F4500
G0 X111.605 Y110.961 F7200
G1 X114.684 Y114.039 E27.01981 F4500
G0 X120.656 Y110.961 F7200
G1 X123.735 Y114.039 E27.19358 F4500
G0 X129.707 Y110.961 F7200
G1 X132.786 Y114.039 E27.36736 F4500
G0 X143.283 Y110.961 F7200
G1 X146.362 Y114.039 E27.54114 F4500
G0 X156.860 Y110.961 F7200
G1 X159.939 Y114.039 E27.71491 F4500
G0 X168.990 Y114.039 F7200
G1 X160.839 Y105.889 E28.17494 F4500
G0 F3000 E27.17494
G0 X163.538 Y85.960 F7200
G0 F3000 E28.17494
G1 X191.617 Y114.039 E29.75984 F4500
G0 X196.143 Y114.039 F7200
G1 X168.064 Y85.960 E31.34474 F4500
G0 X172.589 Y85.960 F7200
G1 X200.668 Y114.039 E32.92964 F4500
G0 X205.193 Y114.039 F7200
G1 X177.115 Y85.960 E34.51453 F4500
G0 X181.640 Y85.960 F7200
